(G-CODE GENERATED BY FLATCAM v8.994 - www.flatcam.org - Version Date: 2020/11/7)

(Name: pico_watering_system-PTH.drl_1_cnc)
(Type: G-code from Geometry)
(Units: MM)

(Created on Thursday, 30 June 2022 at 15:46)

(This preprocessor is the default preprocessor used by FlatCAM.)
(It is made to work with MACH3 compatible motion controllers.)


(TOOLS DIAMETER: )
(Tool: 1 -> Dia: 0.762)
(Tool: 2 -> Dia: 0.8)
(Tool: 3 -> Dia: 0.85)
(Tool: 4 -> Dia: 0.9)
(Tool: 5 -> Dia: 1.0)
(Tool: 6 -> Dia: 1.1)
(Tool: 7 -> Dia: 1.3)

(FEEDRATE Z: )
(Tool: 1 -> Feedrate: 200.0)
(Tool: 2 -> Feedrate: 200.0)
(Tool: 3 -> Feedrate: 200.0)
(Tool: 4 -> Feedrate: 200.0)
(Tool: 5 -> Feedrate: 200.0)
(Tool: 6 -> Feedrate: 200.0)
(Tool: 7 -> Feedrate: 200.0)

(FEEDRATE RAPIDS: )
(Tool: 1 -> Feedrate Rapids: 1500)
(Tool: 2 -> Feedrate Rapids: 1500)
(Tool: 3 -> Feedrate Rapids: 1500)
(Tool: 4 -> Feedrate Rapids: 1500)
(Tool: 5 -> Feedrate Rapids: 1500)
(Tool: 6 -> Feedrate Rapids: 1500)
(Tool: 7 -> Feedrate Rapids: 1500)

(Z_CUT: )
(Tool: 1 -> Z_Cut: -1.7)
(Tool: 2 -> Z_Cut: -1.7)
(Tool: 3 -> Z_Cut: -1.7)
(Tool: 4 -> Z_Cut: -1.7)
(Tool: 5 -> Z_Cut: -1.7)
(Tool: 6 -> Z_Cut: -1.7)
(Tool: 7 -> Z_Cut: -1.7)

(Tools Offset: )
(Tool: 1 -> Offset Z: 0.0)
(Tool: 2 -> Offset Z: 0.0)
(Tool: 3 -> Offset Z: 0.0)
(Tool: 4 -> Offset Z: 0.0)
(Tool: 5 -> Offset Z: 0.0)
(Tool: 6 -> Offset Z: 0.0)
(Tool: 7 -> Offset Z: 0.0)

(Z_MOVE: )
(Tool: 1 -> Z_Move: 2)
(Tool: 2 -> Z_Move: 2)
(Tool: 3 -> Z_Move: 2)
(Tool: 4 -> Z_Move: 2)
(Tool: 5 -> Z_Move: 2)
(Tool: 6 -> Z_Move: 2)
(Tool: 7 -> Z_Move: 2)

(Z Toolchange: 15 mm)
(X,Y Toolchange: 0.0000, 0.0000 mm)
(Z Start: None mm)
(Z End: 0.5 mm)
(X,Y End: None mm)
(Steps per circle: 64)
(Preprocessor Excellon: default)

(X range:    2.8500 ...   94.1500  mm)
(Y range:  -63.1500 ...   -1.8500  mm)

(Spindle Speed: 1000 RPM)
G21
G90
G94

G01 F200.00

M5
G00 Z15.0000
G00 X0.0000 Y0.0000                
G00 Z15.0000

G01 F200.00
M03 S1000
G00 X50.5100 Y-57.7390
G01 Z-1.7000
G01 Z0
G00 Z2.0000
G00 X35.2700 Y-52.0540
G01 Z-1.7000
G01 Z0
G00 Z2.0000
G00 X32.7300 Y-52.0540
G01 Z-1.7000
G01 Z0
G00 Z2.0000
G00 X32.7300 Y-44.4340
G01 Z-1.7000
G01 Z0
G00 Z2.0000
G00 X35.2700 Y-44.4340
G01 Z-1.7000
G01 Z0
G00 Z2.0000
G00 X35.2700 Y-36.8140
G01 Z-1.7000
G01 Z0
G00 Z2.0000
G00 X32.7300 Y-36.8140
G01 Z-1.7000
G01 Z0
G00 Z2.0000
G00 X32.7300 Y-29.1940
G01 Z-1.7000
G01 Z0
G00 Z2.0000
G00 X35.2700 Y-29.1940
G01 Z-1.7000
G01 Z0
G00 Z2.0000
G00 X37.8100 Y-22.8440
G01 Z-1.7000
G01 Z0
G00 Z2.0000
G00 X30.1900 Y-22.8440
G01 Z-1.7000
G01 Z0
G00 Z2.0000
G00 X19.7050 Y-22.8440
G01 Z-1.7000
G01 Z0
G00 Z2.0000
G00 X19.7050 Y-25.3840
G01 Z-1.7000
G01 Z0
G00 Z2.0000
G00 X19.7050 Y-27.9240
G01 Z-1.7000
G01 Z0
G00 Z2.0000
G00 X19.7050 Y-35.5440
G01 Z-1.7000
G01 Z0
G00 Z2.0000
G00 X19.7050 Y-38.0840
G01 Z-1.7000
G01 Z0
G00 Z2.0000
G00 X19.7050 Y-40.6240
G01 Z-1.7000
G01 Z0
G00 Z2.0000
G00 X25.1100 Y-51.4570
G01 Z-1.7000
G01 Z0
G00 Z2.0000
G00 X25.1100 Y-53.9970
G01 Z-1.7000
G01 Z0
G00 Z2.0000
G00 X18.5110 Y-54.0620
G01 Z-1.7000
G01 Z0
G00 Z2.0000
G00 X18.5110 Y-51.5220
G01 Z-1.7000
G01 Z0
G00 Z2.0000
G00 X11.1150 Y-50.7840
G01 Z-1.7000
G01 Z0
G00 Z2.0000
G00 X11.1150 Y-53.3240
G01 Z-1.7000
G01 Z0
G00 Z2.0000
G00 X11.1150 Y-55.8640
G01 Z-1.7000
G01 Z0
G00 Z2.0000
G00 X3.5000 Y-62.5000
G01 Z-1.7000
G01 Z0
G00 Z2.0000
G00 X3.4950 Y-55.8790
G01 Z-1.7000
G01 Z0
G00 Z2.0000
G00 X3.4950 Y-53.3390
G01 Z-1.7000
G01 Z0
G00 Z2.0000
G00 X3.4950 Y-50.7990
G01 Z-1.7000
G01 Z0
G00 Z2.0000
G00 X6.0600 Y-40.6240
G01 Z-1.7000
G01 Z0
G00 Z2.0000
G00 X6.0600 Y-35.5440
G01 Z-1.7000
G01 Z0
G00 Z2.0000
G00 X6.0600 Y-27.9240
G01 Z-1.7000
G01 Z0
G00 Z2.0000
G00 X6.0600 Y-22.8440
G01 Z-1.7000
G01 Z0
G00 Z2.0000
G00 X6.0600 Y-15.2240
G01 Z-1.7000
G01 Z0
G00 Z2.0000
G00 X6.0600 Y-10.1440
G01 Z-1.7000
G01 Z0
G00 Z2.0000
G00 X3.5000 Y-2.5000
G01 Z-1.7000
G01 Z0
G00 Z2.0000
G00 X17.4900 Y-5.0640
G01 Z-1.7000
G01 Z0
G00 Z2.0000
G00 X19.9900 Y-5.0640
G01 Z-1.7000
G01 Z0
G00 Z2.0000
G00 X23.8800 Y-5.0640
G01 Z-1.7000
G01 Z0
G00 Z2.0000
G00 X26.3800 Y-5.0640
G01 Z-1.7000
G01 Z0
G00 Z2.0000
G00 X19.5260 Y-10.4090
G01 Z-1.7000
G01 Z0
G00 Z2.0000
G00 X22.0660 Y-10.4090
G01 Z-1.7000
G01 Z0
G00 Z2.0000
G00 X24.6060 Y-10.4090
G01 Z-1.7000
G01 Z0
G00 Z2.0000
G00 X30.1900 Y-17.7640
G01 Z-1.7000
G01 Z0
G00 Z2.0000
G00 X37.8100 Y-17.7640
G01 Z-1.7000
G01 Z0
G00 Z2.0000
G00 X50.5100 Y-12.0190
G01 Z-1.7000
G01 Z0
G00 Z2.0000
G00 X50.5100 Y-9.4790
G01 Z-1.7000
G01 Z0
G00 Z2.0000
G00 X56.8600 Y-9.7090
G01 Z-1.7000
G01 Z0
G00 Z2.0000
G00 X59.4000 Y-9.7090
G01 Z-1.7000
G01 Z0
G00 Z2.0000
G00 X61.9400 Y-9.7090
G01 Z-1.7000
G01 Z0
G00 Z2.0000
G00 X68.2900 Y-9.4790
G01 Z-1.7000
G01 Z0
G00 Z2.0000
G00 X68.2900 Y-12.0190
G01 Z-1.7000
G01 Z0
G00 Z2.0000
G00 X93.5000 Y-2.5000
G01 Z-1.7000
G01 Z0
G00 Z2.0000
G00 X91.1500 Y-17.7640
G01 Z-1.7000
G01 Z0
G00 Z2.0000
G00 X91.1500 Y-22.8440
G01 Z-1.7000
G01 Z0
G00 Z2.0000
G00 X83.5300 Y-17.7640
G01 Z-1.7000
G01 Z0
G00 Z2.0000
G00 X83.5300 Y-22.8440
G01 Z-1.7000
G01 Z0
G00 Z2.0000
G00 X86.0700 Y-29.1940
G01 Z-1.7000
G01 Z0
G00 Z2.0000
G00 X88.6100 Y-29.1940
G01 Z-1.7000
G01 Z0
G00 Z2.0000
G00 X88.6100 Y-36.8140
G01 Z-1.7000
G01 Z0
G00 Z2.0000
G00 X86.0700 Y-36.8140
G01 Z-1.7000
G01 Z0
G00 Z2.0000
G00 X86.0700 Y-44.4340
G01 Z-1.7000
G01 Z0
G00 Z2.0000
G00 X88.6100 Y-44.4340
G01 Z-1.7000
G01 Z0
G00 Z2.0000
G00 X88.6100 Y-52.0540
G01 Z-1.7000
G01 Z0
G00 Z2.0000
G00 X86.0700 Y-52.0540
G01 Z-1.7000
G01 Z0
G00 Z2.0000
G00 X93.5000 Y-62.5000
G01 Z-1.7000
G01 Z0
G00 Z2.0000
G00 X68.2900 Y-57.7390
G01 Z-1.7000
G01 Z0
G00 Z2.0000
G00 X68.2900 Y-55.1990
G01 Z-1.7000
G01 Z0
G00 Z2.0000
G00 X68.2900 Y-52.6590
G01 Z-1.7000
G01 Z0
G00 Z2.0000
G00 X68.2900 Y-50.1190
G01 Z-1.7000
G01 Z0
G00 Z2.0000
G00 X68.2900 Y-47.5790
G01 Z-1.7000
G01 Z0
G00 Z2.0000
G00 X68.2900 Y-45.0390
G01 Z-1.7000
G01 Z0
G00 Z2.0000
G00 X68.2900 Y-42.4990
G01 Z-1.7000
G01 Z0
G00 Z2.0000
G00 X68.2900 Y-39.9590
G01 Z-1.7000
G01 Z0
G00 Z2.0000
G00 X68.2900 Y-37.4190
G01 Z-1.7000
G01 Z0
G00 Z2.0000
G00 X68.2900 Y-34.8790
G01 Z-1.7000
G01 Z0
G00 Z2.0000
G00 X68.2900 Y-32.3390
G01 Z-1.7000
G01 Z0
G00 Z2.0000
G00 X68.2900 Y-29.7990
G01 Z-1.7000
G01 Z0
G00 Z2.0000
G00 X68.2900 Y-27.2590
G01 Z-1.7000
G01 Z0
G00 Z2.0000
G00 X68.2900 Y-24.7190
G01 Z-1.7000
G01 Z0
G00 Z2.0000
G00 X68.2900 Y-22.1790
G01 Z-1.7000
G01 Z0
G00 Z2.0000
G00 X68.2900 Y-19.6390
G01 Z-1.7000
G01 Z0
G00 Z2.0000
G00 X68.2900 Y-17.0990
G01 Z-1.7000
G01 Z0
G00 Z2.0000
G00 X68.2900 Y-14.5590
G01 Z-1.7000
G01 Z0
G00 Z2.0000
G00 X50.5100 Y-14.5590
G01 Z-1.7000
G01 Z0
G00 Z2.0000
G00 X50.5100 Y-17.0990
G01 Z-1.7000
G01 Z0
G00 Z2.0000
G00 X50.5100 Y-19.6390
G01 Z-1.7000
G01 Z0
G00 Z2.0000
G00 X50.5100 Y-22.1790
G01 Z-1.7000
G01 Z0
G00 Z2.0000
G00 X50.5100 Y-24.7190
G01 Z-1.7000
G01 Z0
G00 Z2.0000
G00 X50.5100 Y-27.2590
G01 Z-1.7000
G01 Z0
G00 Z2.0000
G00 X50.5100 Y-29.7990
G01 Z-1.7000
G01 Z0
G00 Z2.0000
G00 X50.5100 Y-32.3390
G01 Z-1.7000
G01 Z0
G00 Z2.0000
G00 X50.5100 Y-34.8790
G01 Z-1.7000
G01 Z0
G00 Z2.0000
G00 X50.5100 Y-37.4190
G01 Z-1.7000
G01 Z0
G00 Z2.0000
G00 X50.5100 Y-39.9590
G01 Z-1.7000
G01 Z0
G00 Z2.0000
G00 X50.5100 Y-42.4990
G01 Z-1.7000
G01 Z0
G00 Z2.0000
G00 X50.5100 Y-45.0390
G01 Z-1.7000
G01 Z0
G00 Z2.0000
G00 X50.5100 Y-47.5790
G01 Z-1.7000
G01 Z0
G00 Z2.0000
G00 X50.5100 Y-50.1190
G01 Z-1.7000
G01 Z0
G00 Z2.0000
G00 X50.5100 Y-52.6590
G01 Z-1.7000
G01 Z0
G00 Z2.0000
G00 X50.5100 Y-55.1990
G01 Z-1.7000
G01 Z0
G00 Z2.0000
M05
G00 Z0.50


