(G-CODE GENERATED BY FLATCAM v8.994 - www.flatcam.org - Version Date: 2020/11/7)

(Name: pico_watering_system-B_Cu.gbr_iso_combined_cnc)
(Type: G-code from Geometry)
(Units: MM)

(Created on Thursday, 30 June 2022 at 15:26)

(This preprocessor is the default preprocessor used by FlatCAM.)
(It is made to work with MACH3 compatible motion controllers.)

(TOOL DIAMETER: 0.25 mm)
(Feedrate_XY: 100.0 mm/min)
(Feedrate_Z: 60.0 mm/min)
(Feedrate rapids 1500.0 mm/min)

(Z_Cut: -0.05 mm)
(Z_Move: 2.0 mm)
(Z Start: None mm)
(Z End: 15.0 mm)
(X,Y End: None mm)
(Steps per circle: 64)
(Preprocessor Geometry: default)

(X range:   -0.0815 ...   97.2915  mm)
(Y range:  -65.7915 ...   -0.1685  mm)

(Spindle Speed: 1000.0 RPM)
G21
G90
G94

G01 F100.00

M5
G00 Z15.0000
G00 X0.0000 Y0.0000
G00 Z15.0000

M03 S1000.0
G01 F100.00
G00 X-0.0746 Y-0.5307
G01 F60.00
G01 Z-0.0500
G01 F100.00
G01 X-0.0773 Y-0.5448
G01 X-0.0801 Y-0.5660
G01 X-0.0812 Y-0.5802
G01 X-0.0815 Y-0.5945
G01 X-0.0815 Y-65.3655
G01 X-0.0812 Y-65.3798
G01 X-0.0794 Y-65.4011
G01 X-0.0761 Y-65.4223
G01 X-0.0713 Y-65.4431
G01 X-0.0493 Y-65.5181
G01 X-0.0448 Y-65.5323
G01 X-0.0395 Y-65.5463
G01 X-0.0336 Y-65.5599
G01 X-0.0235 Y-65.5798
G01 X-0.0118 Y-65.5989
G01 X0.0012 Y-65.6171
G01 X0.0155 Y-65.6343
G01 X0.0257 Y-65.6451
G01 X0.0420 Y-65.6603
G01 X0.0957 Y-65.7068
G01 X0.1132 Y-65.7209
G01 X0.1255 Y-65.7296
G01 X0.1382 Y-65.7376
G01 X0.1512 Y-65.7449
G01 X0.1714 Y-65.7548
G01 X0.1924 Y-65.7630
G01 X0.2138 Y-65.7697
G01 X0.2284 Y-65.7733
G01 X0.2807 Y-65.7846
G01 X0.2948 Y-65.7873
G01 X0.3160 Y-65.7901
G01 X0.3302 Y-65.7912
G01 X0.3445 Y-65.7915
G01 X96.8655 Y-65.7915
G01 X96.8869 Y-65.7907
G01 X96.9082 Y-65.7884
G01 X96.9293 Y-65.7846
G01 X96.9431 Y-65.7813
G01 X97.0181 Y-65.7593
G01 X97.0323 Y-65.7548
G01 X97.0463 Y-65.7495
G01 X97.0599 Y-65.7436
G01 X97.0798 Y-65.7335
G01 X97.0989 Y-65.7218
G01 X97.1171 Y-65.7088
G01 X97.1287 Y-65.6994
G01 X97.1451 Y-65.6843
G01 X97.1603 Y-65.6680
G01 X97.2068 Y-65.6143
G01 X97.2164 Y-65.6027
G01 X97.2296 Y-65.5845
G01 X97.2413 Y-65.5654
G01 X97.2517 Y-65.5454
G01 X97.2604 Y-65.5247
G01 X97.2654 Y-65.5105
G01 X97.2697 Y-65.4962
G01 X97.2733 Y-65.4816
G01 X97.2846 Y-65.4293
G01 X97.2873 Y-65.4152
G01 X97.2901 Y-65.3940
G01 X97.2912 Y-65.3798
G01 X97.2915 Y-65.3655
G01 X97.2915 Y-0.5945
G01 X97.2907 Y-0.5731
G01 X97.2894 Y-0.5589
G01 X97.2861 Y-0.5377
G01 X97.2813 Y-0.5169
G01 X97.2593 Y-0.4419
G01 X97.2548 Y-0.4277
G01 X97.2467 Y-0.4069
G01 X97.2404 Y-0.3933
G01 X97.2335 Y-0.3802
G01 X97.2218 Y-0.3611
G01 X97.2088 Y-0.3429
G01 X97.1994 Y-0.3313
G01 X97.1843 Y-0.3149
G01 X97.1680 Y-0.2997
G01 X97.1143 Y-0.2532
G01 X97.1027 Y-0.2436
G01 X97.0845 Y-0.2304
G01 X97.0654 Y-0.2187
G01 X97.0454 Y-0.2083
G01 X97.0247 Y-0.1996
G01 X97.0034 Y-0.1923
G01 X96.9816 Y-0.1867
G01 X96.9223 Y-0.1739
G01 X96.9082 Y-0.1716
G01 X96.8940 Y-0.1699
G01 X96.8726 Y-0.1686
G01 X94.6809 Y-0.1686
G01 X94.6667 Y-0.1693
G01 X94.6525 Y-0.1706
G01 X94.6313 Y-0.1739
G01 X94.6174 Y-0.1770
G01 X94.6036 Y-0.1807
G01 X94.5354 Y-0.2007
G01 X94.5213 Y-0.2052
G01 X94.5073 Y-0.2105
G01 X94.4937 Y-0.2164
G01 X94.4737 Y-0.2265
G01 X94.4609 Y-0.2341
G01 X94.4485 Y-0.2423
G01 X94.4365 Y-0.2512
G01 X94.4249 Y-0.2606
G01 X94.4138 Y-0.2705
G01 X94.3982 Y-0.2865
G01 X94.3467 Y-0.3457
G01 X94.3328 Y-0.3631
G01 X94.3242 Y-0.3753
G01 X94.3162 Y-0.3879
G01 X94.3088 Y-0.4008
G01 X94.3022 Y-0.4142
G01 X94.2961 Y-0.4278
G01 X94.2908 Y-0.4417
G01 X94.2862 Y-0.4559
G01 X94.2805 Y-0.4775
G01 X94.2765 Y-0.4995
G01 X94.2664 Y-0.5697
G01 X94.2641 Y-0.5920
G01 X94.2634 Y-0.6068
G01 X94.2635 Y-0.6217
G01 X94.2643 Y-0.6366
G01 X94.2659 Y-0.6514
G01 X94.2682 Y-0.6662
G01 X94.2713 Y-0.6807
G01 X94.2771 Y-0.7023
G01 X94.2846 Y-0.7234
G01 X94.2905 Y-0.7371
G01 X94.3200 Y-0.8016
G01 X94.3265 Y-0.8151
G01 X94.3338 Y-0.8282
G01 X94.3416 Y-0.8410
G01 X94.3501 Y-0.8533
G01 X94.3592 Y-0.8652
G01 X94.3740 Y-0.8822
G01 X94.3845 Y-0.8929
G01 X94.3955 Y-0.9030
G01 X94.4384 Y-0.9385
G01 X94.4553 Y-0.9510
G01 X94.4732 Y-0.9623
G01 X94.5389 Y-1.0007
G01 X94.7330 Y-1.1529
G01 X94.9046 Y-1.3300
G01 X95.0505 Y-1.5287
G01 X95.1682 Y-1.7454
G01 X95.2554 Y-1.9761
G01 X95.3104 Y-2.2164
G01 X95.3329 Y-2.4688
G01 X95.3333 Y-2.4920
G01 X95.3160 Y-2.7460
G01 X95.2660 Y-2.9875
G01 X95.1836 Y-3.2199
G01 X95.0705 Y-3.4390
G01 X95.0690 Y-3.4412
G01 X94.9288 Y-3.6408
G01 X94.7609 Y-3.8214
G01 X94.5701 Y-3.9776
G01 X94.3598 Y-4.1065
G01 X94.1340 Y-4.2056
G01 X94.1278 Y-4.2073
G01 X93.8969 Y-4.2731
G01 X93.6528 Y-4.3079
G01 X93.4062 Y-4.3092
G01 X93.1617 Y-4.2770
G01 X92.9239 Y-4.2119
G01 X92.6970 Y-4.1152
G01 X92.4855 Y-3.9885
G01 X92.2930 Y-3.8343
G01 X92.1233 Y-3.6555
G01 X91.9794 Y-3.4552
G01 X91.8640 Y-3.2373
G01 X91.7792 Y-3.0057
G01 X91.7267 Y-2.7648
G01 X91.7074 Y-2.5190
G01 X91.7216 Y-2.2728
G01 X91.7690 Y-2.0308
G01 X91.8489 Y-1.7975
G01 X91.9597 Y-1.5772
G01 X92.0994 Y-1.3740
G01 X92.2653 Y-1.1916
G01 X92.4545 Y-1.0335
G01 X92.5790 Y-0.9554
G01 X92.5909 Y-0.9475
G01 X92.6024 Y-0.9391
G01 X92.6135 Y-0.9301
G01 X92.6242 Y-0.9206
G01 X92.6344 Y-0.9106
G01 X92.6441 Y-0.9002
G01 X92.6961 Y-0.8414
G01 X92.7098 Y-0.8238
G01 X92.7222 Y-0.8052
G01 X92.7332 Y-0.7857
G01 X92.7397 Y-0.7723
G01 X92.7456 Y-0.7586
G01 X92.7530 Y-0.7375
G01 X92.7571 Y-0.7232
G01 X92.7605 Y-0.7087
G01 X92.7631 Y-0.6940
G01 X92.7740 Y-0.6239
G01 X92.7759 Y-0.6091
G01 X92.7771 Y-0.5942
G01 X92.7775 Y-0.5794
G01 X92.7768 Y-0.5570
G01 X92.7754 Y-0.5422
G01 X92.7719 Y-0.5201
G01 X92.7668 Y-0.4984
G01 X92.7625 Y-0.4841
G01 X92.7575 Y-0.4701
G01 X92.7518 Y-0.4563
G01 X92.7230 Y-0.3914
G01 X92.7166 Y-0.3779
G01 X92.7096 Y-0.3648
G01 X92.6978 Y-0.3458
G01 X92.6892 Y-0.3336
G01 X92.6752 Y-0.3162
G01 X92.6599 Y-0.2999
G01 X92.6435 Y-0.2848
G01 X92.6319 Y-0.2754
G01 X92.6137 Y-0.2624
G01 X92.5544 Y-0.2234
G01 X92.5421 Y-0.2158
G01 X92.5231 Y-0.2054
G01 X92.5100 Y-0.1993
G01 X92.4898 Y-0.1913
G01 X92.4761 Y-0.1868
G01 X92.4551 Y-0.1813
G01 X92.4409 Y-0.1784
G01 X92.3969 Y-0.1718
G01 X92.3822 Y-0.1700
G01 X92.3674 Y-0.1689
G01 X92.3526 Y-0.1685
G01 X4.6281 Y-0.1685
G01 X4.6138 Y-0.1688
G01 X4.5925 Y-0.1706
G01 X4.5783 Y-0.1727
G01 X4.5643 Y-0.1754
G01 X4.5436 Y-0.1807
G01 X4.4754 Y-0.2007
G01 X4.4613 Y-0.2052
G01 X4.4404 Y-0.2133
G01 X4.4269 Y-0.2196
G01 X4.4137 Y-0.2265
G01 X4.4009 Y-0.2341
G01 X4.3824 Y-0.2467
G01 X4.3649 Y-0.2606
G01 X4.3538 Y-0.2705
G01 X4.3433 Y-0.2810
G01 X4.3332 Y-0.2920
G01 X4.2867 Y-0.3457
G01 X4.2773 Y-0.3572
G01 X4.2642 Y-0.3753
G01 X4.2562 Y-0.3879
G01 X4.2488 Y-0.4008
G01 X4.2422 Y-0.4142
G01 X4.2361 Y-0.4278
G01 X4.2308 Y-0.4417
G01 X4.2262 Y-0.4559
G01 X4.2205 Y-0.4775
G01 X4.2165 Y-0.4995
G01 X4.2064 Y-0.5697
G01 X4.2047 Y-0.5845
G01 X4.2037 Y-0.5994
G01 X4.2034 Y-0.6143
G01 X4.2043 Y-0.6366
G01 X4.2059 Y-0.6514
G01 X4.2096 Y-0.6735
G01 X4.2150 Y-0.6952
G01 X4.2195 Y-0.7094
G01 X4.2246 Y-0.7234
G01 X4.2305 Y-0.7371
G01 X4.2600 Y-0.8016
G01 X4.2665 Y-0.8151
G01 X4.2776 Y-0.8347
G01 X4.2901 Y-0.8533
G01 X4.3040 Y-0.8710
G01 X4.3192 Y-0.8876
G01 X4.3355 Y-0.9030
G01 X4.3729 Y-0.9341
G01 X4.3839 Y-0.9428
G01 X4.3953 Y-0.9510
G01 X4.4071 Y-0.9587
G01 X4.4789 Y-1.0007
G01 X4.6730 Y-1.1529
G01 X4.8446 Y-1.3300
G01 X4.9905 Y-1.5287
G01 X5.1082 Y-1.7454
G01 X5.1954 Y-1.9761
G01 X5.2504 Y-2.2164
G01 X5.2729 Y-2.4688
G01 X5.2733 Y-2.4920
G01 X5.2560 Y-2.7460
G01 X5.2060 Y-2.9875
G01 X5.1236 Y-3.2199
G01 X5.0105 Y-3.4390
G01 X5.0090 Y-3.4412
G01 X4.8688 Y-3.6408
G01 X4.7009 Y-3.8214
G01 X4.5101 Y-3.9776
G01 X4.2998 Y-4.1065
G01 X4.0740 Y-4.2056
G01 X4.0678 Y-4.2073
G01 X3.8369 Y-4.2731
G01 X3.5928 Y-4.3079
G01 X3.3462 Y-4.3092
G01 X3.1017 Y-4.2770
G01 X2.8639 Y-4.2119
G01 X2.6370 Y-4.1152
G01 X2.4255 Y-3.9885
G01 X2.2330 Y-3.8343
G01 X2.0633 Y-3.6555
G01 X1.9194 Y-3.4552
G01 X1.8040 Y-3.2373
G01 X1.7192 Y-3.0057
G01 X1.6667 Y-2.7648
G01 X1.6474 Y-2.5190
G01 X1.6616 Y-2.2728
G01 X1.7090 Y-2.0308
G01 X1.7889 Y-1.7975
G01 X1.8997 Y-1.5772
G01 X2.0394 Y-1.3740
G01 X2.2053 Y-1.1916
G01 X2.3945 Y-1.0335
G01 X2.5250 Y-0.9515
G01 X2.5367 Y-0.9434
G01 X2.5480 Y-0.9346
G01 X2.5642 Y-0.9206
G01 X2.5744 Y-0.9106
G01 X2.5841 Y-0.9002
G01 X2.6361 Y-0.8414
G01 X2.6454 Y-0.8298
G01 X2.6541 Y-0.8177
G01 X2.6622 Y-0.8052
G01 X2.6697 Y-0.7923
G01 X2.6766 Y-0.7791
G01 X2.6827 Y-0.7655
G01 X2.6907 Y-0.7446
G01 X2.6971 Y-0.7232
G01 X2.7019 Y-0.7014
G01 X2.7140 Y-0.6239
G01 X2.7166 Y-0.6017
G01 X2.7174 Y-0.5868
G01 X2.7175 Y-0.5719
G01 X2.7168 Y-0.5570
G01 X2.7154 Y-0.5422
G01 X2.7132 Y-0.5274
G01 X2.7087 Y-0.5056
G01 X2.7047 Y-0.4912
G01 X2.7001 Y-0.4771
G01 X2.6918 Y-0.4563
G01 X2.6630 Y-0.3914
G01 X2.6566 Y-0.3779
G01 X2.6496 Y-0.3648
G01 X2.6378 Y-0.3458
G01 X2.6247 Y-0.3277
G01 X2.6102 Y-0.3107
G01 X2.5999 Y-0.2999
G01 X2.5891 Y-0.2897
G01 X2.5777 Y-0.2800
G01 X2.5599 Y-0.2666
G01 X2.4883 Y-0.2195
G01 X2.4695 Y-0.2087
G01 X2.4566 Y-0.2023
G01 X2.4433 Y-0.1964
G01 X2.4298 Y-0.1913
G01 X2.4091 Y-0.1848
G01 X2.3951 Y-0.1813
G01 X2.3809 Y-0.1784
G01 X2.3369 Y-0.1718
G01 X2.3222 Y-0.1700
G01 X2.3074 Y-0.1689
G01 X2.2926 Y-0.1685
G01 X0.3445 Y-0.1685
G01 X0.3231 Y-0.1693
G01 X0.3018 Y-0.1716
G01 X0.2877 Y-0.1739
G01 X0.2738 Y-0.1770
G01 X0.2600 Y-0.1807
G01 X0.1919 Y-0.2007
G01 X0.1707 Y-0.2077
G01 X0.1501 Y-0.2164
G01 X0.1367 Y-0.2230
G01 X0.1237 Y-0.2303
G01 X0.1111 Y-0.2382
G01 X0.0988 Y-0.2467
G01 X0.0871 Y-0.2558
G01 X0.0757 Y-0.2655
G01 X0.0649 Y-0.2757
G01 X0.0546 Y-0.2865
G01 X-0.0017 Y-0.3514
G01 X-0.0109 Y-0.3632
G01 X-0.0196 Y-0.3755
G01 X-0.0313 Y-0.3946
G01 X-0.0384 Y-0.4079
G01 X-0.0448 Y-0.4214
G01 X-0.0504 Y-0.4353
G01 X-0.0554 Y-0.4495
G01 X-0.0616 Y-0.4711
G01 X-0.0746 Y-0.5307
G00 Z2.0000
G00 X0.0964 Y-0.5679
G01 F60.00
G01 Z-0.0500
G01 F100.00
G01 X0.0941 Y-0.5826
G01 X0.0935 Y-0.5945
G01 X0.0935 Y-65.3655
G01 X0.0938 Y-65.3744
G01 X0.0948 Y-65.3833
G01 X0.0964 Y-65.3921
G01 X0.0986 Y-65.4007
G01 X0.1205 Y-65.4747
G01 X0.1251 Y-65.4863
G01 X0.1309 Y-65.4972
G01 X0.1359 Y-65.5051
G01 X0.1415 Y-65.5125
G01 X0.1521 Y-65.5239
G01 X0.2103 Y-65.5746
G01 X0.2227 Y-65.5840
G01 X0.2334 Y-65.5905
G01 X0.2419 Y-65.5945
G01 X0.2506 Y-65.5980
G01 X0.2595 Y-65.6008
G01 X0.3208 Y-65.6142
G01 X0.3326 Y-65.6159
G01 X0.3445 Y-65.6165
G01 X96.8655 Y-65.6165
G01 X96.8744 Y-65.6162
G01 X96.8833 Y-65.6152
G01 X96.8921 Y-65.6136
G01 X96.9007 Y-65.6114
G01 X96.9747 Y-65.5895
G01 X96.9863 Y-65.5849
G01 X96.9972 Y-65.5791
G01 X97.0051 Y-65.5741
G01 X97.0125 Y-65.5685
G01 X97.0239 Y-65.5579
G01 X97.0746 Y-65.4997
G01 X97.0840 Y-65.4873
G01 X97.0890 Y-65.4793
G01 X97.0933 Y-65.4710
G01 X97.0980 Y-65.4594
G01 X97.1008 Y-65.4505
G01 X97.1142 Y-65.3892
G01 X97.1159 Y-65.3774
G01 X97.1165 Y-65.3655
G01 X97.1165 Y-0.5945
G01 X97.1162 Y-0.5856
G01 X97.1152 Y-0.5767
G01 X97.1136 Y-0.5679
G01 X97.1114 Y-0.5593
G01 X97.0895 Y-0.4853
G01 X97.0849 Y-0.4737
G01 X97.0791 Y-0.4628
G01 X97.0704 Y-0.4499
G01 X97.0644 Y-0.4428
G01 X97.0579 Y-0.4361
G01 X96.9997 Y-0.3854
G01 X96.9873 Y-0.3760
G01 X96.9793 Y-0.3710
G01 X96.9681 Y-0.3655
G01 X96.9594 Y-0.3620
G01 X96.9505 Y-0.3592
G01 X96.8892 Y-0.3458
G01 X96.8774 Y-0.3441
G01 X96.8685 Y-0.3435
G01 X94.6851 Y-0.3435
G01 X94.6703 Y-0.3448
G01 X94.6557 Y-0.3478
G01 X94.5848 Y-0.3686
G01 X94.5730 Y-0.3726
G01 X94.5590 Y-0.3794
G01 X94.5460 Y-0.3877
G01 X94.5341 Y-0.3977
G01 X94.5255 Y-0.4066
G01 X94.4751 Y-0.4651
G01 X94.4663 Y-0.4779
G01 X94.4591 Y-0.4916
G01 X94.4547 Y-0.5032
G01 X94.4508 Y-0.5182
G01 X94.4392 Y-0.5977
G01 X94.4384 Y-0.6101
G01 X94.4391 Y-0.6256
G01 X94.4410 Y-0.6379
G01 X94.4441 Y-0.6499
G01 X94.4497 Y-0.6644
G01 X94.4792 Y-0.7289
G01 X94.4849 Y-0.7400
G01 X94.4936 Y-0.7530
G01 X94.4996 Y-0.7602
G01 X94.5060 Y-0.7669
G01 X94.5130 Y-0.7732
G01 X94.5470 Y-0.8013
G01 X94.5540 Y-0.8065
G01 X94.5615 Y-0.8112
G01 X94.6375 Y-0.8557
G01 X94.8503 Y-1.0225
G01 X95.0385 Y-1.2167
G01 X95.1986 Y-1.4347
G01 X95.3277 Y-1.6724
G01 X95.4233 Y-1.9254
G01 X95.4837 Y-2.1890
G01 X95.5080 Y-2.4620
G01 X95.5084 Y-2.4964
G01 X95.4897 Y-2.7698
G01 X95.4349 Y-3.0346
G01 X95.3446 Y-3.2896
G01 X95.2206 Y-3.5299
G01 X95.2122 Y-3.5418
G01 X95.0651 Y-3.7512
G01 X94.8810 Y-3.9493
G01 X94.6717 Y-4.1206
G01 X94.4411 Y-4.2619
G01 X94.1935 Y-4.3706
G01 X94.1757 Y-4.3757
G01 X93.9334 Y-4.4447
G01 X93.6656 Y-4.4828
G01 X93.3952 Y-4.4842
G01 X93.1270 Y-4.4489
G01 X92.8662 Y-4.3776
G01 X92.6174 Y-4.2714
G01 X92.3853 Y-4.1326
G01 X92.1743 Y-3.9635
G01 X91.9881 Y-3.7673
G01 X91.8303 Y-3.5477
G01 X91.7037 Y-3.3086
G01 X91.6108 Y-3.0547
G01 X91.5532 Y-2.7904
G01 X91.5320 Y-2.5208
G01 X91.5475 Y-2.2508
G01 X91.5996 Y-1.9854
G01 X91.6872 Y-1.7296
G01 X91.8087 Y-1.4880
G01 X91.9619 Y-1.2651
G01 X92.1439 Y-1.0650
G01 X92.3514 Y-0.8916
G01 X92.4885 Y-0.8055
G01 X92.4981 Y-0.7985
G01 X92.5048 Y-0.7926
G01 X92.5131 Y-0.7841
G01 X92.5602 Y-0.7310
G01 X92.5661 Y-0.7238
G01 X92.5732 Y-0.7135
G01 X92.5777 Y-0.7054
G01 X92.5829 Y-0.6941
G01 X92.5869 Y-0.6824
G01 X92.5902 Y-0.6672
G01 X92.6015 Y-0.5940
G01 X92.6025 Y-0.5785
G01 X92.6022 Y-0.5692
G01 X92.6012 Y-0.5600
G01 X92.5981 Y-0.5448
G01 X92.5930 Y-0.5301
G01 X92.5617 Y-0.4595
G01 X92.5574 Y-0.4513
G01 X92.5525 Y-0.4434
G01 X92.5470 Y-0.4358
G01 X92.5389 Y-0.4265
G01 X92.5322 Y-0.4200
G01 X92.5251 Y-0.4140
G01 X92.5175 Y-0.4086
G01 X92.4582 Y-0.3696
G01 X92.4478 Y-0.3635
G01 X92.4341 Y-0.3572
G01 X92.4255 Y-0.3543
G01 X92.4168 Y-0.3520
G01 X92.4079 Y-0.3504
G01 X92.3711 Y-0.3449
G01 X92.3588 Y-0.3437
G01 X4.6221 Y-0.3436
G01 X4.6103 Y-0.3448
G01 X4.5957 Y-0.3478
G01 X4.5248 Y-0.3686
G01 X4.5102 Y-0.3739
G01 X4.4964 Y-0.3809
G01 X4.4885 Y-0.3859
G01 X4.4811 Y-0.3915
G01 X4.4697 Y-0.4021
G01 X4.4151 Y-0.4651
G01 X4.4063 Y-0.4779
G01 X4.3991 Y-0.4916
G01 X4.3938 Y-0.5062
G01 X4.3902 Y-0.5213
G01 X4.3796 Y-0.5946
G01 X4.3785 Y-0.6070
G01 X4.3784 Y-0.6163
G01 X4.3794 Y-0.6287
G01 X4.3810 Y-0.6379
G01 X4.3832 Y-0.6469
G01 X4.3884 Y-0.6615
G01 X4.4219 Y-0.7346
G01 X4.4282 Y-0.7453
G01 X4.4336 Y-0.7530
G01 X4.4396 Y-0.7602
G01 X4.4460 Y-0.7669
G01 X4.4530 Y-0.7732
G01 X4.4847 Y-0.7995
G01 X4.4940 Y-0.8065
G01 X4.5015 Y-0.8112
G01 X4.5775 Y-0.8557
G01 X4.7903 Y-1.0225
G01 X4.9785 Y-1.2167
G01 X5.1386 Y-1.4347
G01 X5.2677 Y-1.6724
G01 X5.3633 Y-1.9254
G01 X5.4237 Y-2.1890
G01 X5.4480 Y-2.4620
G01 X5.4484 Y-2.4964
G01 X5.4297 Y-2.7698
G01 X5.3749 Y-3.0346
G01 X5.2846 Y-3.2896
G01 X5.1606 Y-3.5299
G01 X5.1522 Y-3.5418
G01 X5.0051 Y-3.7512
G01 X4.8210 Y-3.9493
G01 X4.6117 Y-4.1206
G01 X4.3811 Y-4.2619
G01 X4.1335 Y-4.3706
G01 X4.1157 Y-4.3757
G01 X3.8734 Y-4.4447
G01 X3.6056 Y-4.4828
G01 X3.3352 Y-4.4842
G01 X3.0670 Y-4.4489
G01 X2.8062 Y-4.3776
G01 X2.5574 Y-4.2714
G01 X2.3253 Y-4.1326
G01 X2.1143 Y-3.9635
G01 X1.9281 Y-3.7673
G01 X1.7703 Y-3.5477
G01 X1.6437 Y-3.3086
G01 X1.5508 Y-3.0547
G01 X1.4932 Y-2.7904
G01 X1.4720 Y-2.5208
G01 X1.4875 Y-2.2508
G01 X1.5396 Y-1.9854
G01 X1.6272 Y-1.7296
G01 X1.7487 Y-1.4880
G01 X1.9019 Y-1.2651
G01 X2.0839 Y-1.0650
G01 X2.2914 Y-0.8916
G01 X2.4260 Y-0.8071
G01 X2.4381 Y-0.7985
G01 X2.4448 Y-0.7926
G01 X2.4531 Y-0.7841
G01 X2.5023 Y-0.7286
G01 X2.5115 Y-0.7162
G01 X2.5163 Y-0.7082
G01 X2.5217 Y-0.6970
G01 X2.5260 Y-0.6854
G01 X2.5291 Y-0.6733
G01 X2.5415 Y-0.5940
G01 X2.5425 Y-0.5785
G01 X2.5420 Y-0.5661
G01 X2.5407 Y-0.5569
G01 X2.5388 Y-0.5478
G01 X2.5363 Y-0.5388
G01 X2.5330 Y-0.5301
G01 X2.5004 Y-0.4567
G01 X2.4925 Y-0.4434
G01 X2.4851 Y-0.4334
G01 X2.4745 Y-0.4221
G01 X2.4675 Y-0.4160
G01 X2.4600 Y-0.4104
G01 X2.3956 Y-0.3680
G01 X2.3824 Y-0.3608
G01 X2.3684 Y-0.3552
G01 X2.3538 Y-0.3514
G01 X2.3111 Y-0.3449
G01 X2.2988 Y-0.3437
G01 X0.3386 Y-0.3436
G01 X0.3267 Y-0.3448
G01 X0.3121 Y-0.3478
G01 X0.2412 Y-0.3686
G01 X0.2323 Y-0.3715
G01 X0.2209 Y-0.3765
G01 X0.2101 Y-0.3825
G01 X0.1999 Y-0.3896
G01 X0.1905 Y-0.3977
G01 X0.1819 Y-0.4066
G01 X0.1334 Y-0.4627
G01 X0.1277 Y-0.4701
G01 X0.1210 Y-0.4807
G01 X0.1142 Y-0.4947
G01 X0.1092 Y-0.5095
G01 X0.0964 Y-0.5679
G00 Z2.0000
G00 X5.1651 Y-8.6891
G01 F60.00
G01 Z-0.0500
G01 F100.00
G01 X5.3575 Y-8.8815
G01 X5.3829 Y-8.8663
G01 X5.3910 Y-8.8618
G01 X5.5119 Y-8.8047
G01 X5.5204 Y-8.8013
G01 X5.6405 Y-8.7583
G01 X5.6493 Y-8.7555
G01 X5.7820 Y-8.7224
G01 X5.9142 Y-8.7026
G01 X5.9264 Y-8.7014
G01 X6.0600 Y-8.6950
G01 X6.1936 Y-8.7014
G01 X6.2058 Y-8.7026
G01 X6.3380 Y-8.7224
G01 X6.4707 Y-8.7555
G01 X6.4795 Y-8.7583
G01 X6.5996 Y-8.8013
G01 X6.6081 Y-8.8047
G01 X6.7290 Y-8.8618
G01 X6.7371 Y-8.8663
G01 X6.7625 Y-8.8815
G01 X6.9516 Y-8.6924
G01 X6.8393 Y-8.6230
G01 X6.6094 Y-8.5242
G01 X6.3675 Y-8.4605
G01 X6.1189 Y-8.4333
G01 X5.8689 Y-8.4431
G01 X5.6232 Y-8.4898
G01 X5.3870 Y-8.5723
G01 X5.1651 Y-8.6891
G00 Z2.0000
G00 X7.3195 Y-9.4537
G01 F60.00
G01 Z-0.0500
G01 F100.00
G01 X7.3753 Y-9.5719
G01 X7.3787 Y-9.5804
G01 X7.3907 Y-9.6138
G01 X7.6660 Y-9.6138
G01 X7.6459 Y-9.5427
G01 X7.5432 Y-9.3147
G01 X7.4877 Y-9.2283
G01 X7.2985 Y-9.4175
G01 X7.3153 Y-9.4456
G01 X7.3195 Y-9.4537
G00 Z2.0000
G00 X7.2985 Y-10.8225
G01 F60.00
G01 Z-0.0500
G01 F100.00
G01 X7.4885 Y-11.0125
G01 X7.5833 Y-10.8466
G01 X7.6690 Y-10.6262
G01 X7.3907 Y-10.6262
G01 X7.3777 Y-10.6625
G01 X7.3740 Y-10.6709
G01 X7.3182 Y-10.7890
G01 X7.3137 Y-10.7971
G01 X7.2985 Y-10.8225
G00 Z2.0000
G00 X5.1681 Y-11.5478
G01 F60.00
G01 Z-0.0500
G01 F100.00
G01 X5.2418 Y-11.5961
G01 X5.4690 Y-11.7009
G01 X5.7091 Y-11.7708
G01 X5.9570 Y-11.8046
G01 X6.2071 Y-11.8013
G01 X6.4540 Y-11.7611
G01 X6.6922 Y-11.6848
G01 X6.9166 Y-11.5742
G01 X6.9530 Y-11.5490
G01 X6.7625 Y-11.3585
G01 X6.7371 Y-11.3737
G01 X6.7290 Y-11.3782
G01 X6.6081 Y-11.4353
G01 X6.5996 Y-11.4387
G01 X6.4795 Y-11.4817
G01 X6.4707 Y-11.4845
G01 X6.3380 Y-11.5176
G01 X6.2058 Y-11.5374
G01 X6.1936 Y-11.5386
G01 X6.0600 Y-11.5450
G01 X5.9264 Y-11.5386
G01 X5.9142 Y-11.5374
G01 X5.7820 Y-11.5176
G01 X5.6493 Y-11.4845
G01 X5.6405 Y-11.4817
G01 X5.5204 Y-11.4387
G01 X5.5119 Y-11.4353
G01 X5.3910 Y-11.3782
G01 X5.3829 Y-11.3737
G01 X5.3575 Y-11.3585
G01 X5.1681 Y-11.5478
G00 Z2.0000
G00 X4.6324 Y-11.0117
G01 F60.00
G01 Z-0.0500
G01 F100.00
G01 X4.8215 Y-10.8225
G01 X4.8063 Y-10.7971
G01 X4.8018 Y-10.7890
G01 X4.7447 Y-10.6681
G01 X4.7413 Y-10.6596
G01 X4.6983 Y-10.5395
G01 X4.6955 Y-10.5307
G01 X4.6624 Y-10.3980
G01 X4.6426 Y-10.2658
G01 X4.6414 Y-10.2536
G01 X4.6350 Y-10.1200
G01 X4.6414 Y-9.9864
G01 X4.6426 Y-9.9742
G01 X4.6624 Y-9.8420
G01 X4.6955 Y-9.7093
G01 X4.6983 Y-9.7005
G01 X4.7413 Y-9.5804
G01 X4.7447 Y-9.5719
G01 X4.8018 Y-9.4510
G01 X4.8063 Y-9.4429
G01 X4.8215 Y-9.4175
G01 X4.6298 Y-9.2258
G01 X4.5182 Y-9.4336
G01 X4.4337 Y-9.6690
G01 X4.3849 Y-9.9143
G01 X4.3729 Y-10.1641
G01 X4.3979 Y-10.4130
G01 X4.4595 Y-10.6555
G01 X4.5562 Y-10.8862
G01 X4.6324 Y-11.0117
G00 Z2.0000
G00 X7.7376 Y-14.5188
G01 F60.00
G01 Z-0.0500
G01 F100.00
G01 X7.6865 Y-14.4744
G01 X7.6705 Y-14.4587
G01 X7.6600 Y-14.4470
G01 X7.6600 Y-14.5188
G01 X7.7376 Y-14.5188
G00 Z2.0000
G00 X7.6600 Y-15.9588
G01 F60.00
G01 Z-0.0500
G01 F100.00
G01 X7.7046 Y-15.9075
G01 X7.7203 Y-15.8915
G01 X7.7318 Y-15.8812
G01 X7.6600 Y-15.8812
G01 X7.6600 Y-15.9588
G00 Z2.0000
G00 X2.2551 Y-18.4928
G01 F60.00
G01 Z-0.0500
G01 F100.00
G01 X2.2549 Y-25.2447
G01 X2.2569 Y-25.2882
G01 X2.2581 Y-25.3004
G01 X2.2646 Y-25.3435
G01 X2.2751 Y-25.3857
G01 X2.2786 Y-25.3975
G01 X2.2934 Y-25.4384
G01 X2.3119 Y-25.4778
G01 X2.3177 Y-25.4887
G01 X2.3402 Y-25.5259
G01 X2.3660 Y-25.5610
G01 X2.3738 Y-25.5705
G01 X2.4010 Y-25.6004
G01 X4.6350 Y-27.8345
G01 X4.6350 Y-28.3168
G01 X2.5527 Y-30.3992
G01 X2.5215 Y-30.4338
G01 X2.4954 Y-30.4687
G01 X2.4886 Y-30.4789
G01 X2.4663 Y-30.5163
G01 X2.4476 Y-30.5556
G01 X2.4429 Y-30.5670
G01 X2.4284 Y-30.6080
G01 X2.4169 Y-30.6532
G01 X2.4152 Y-30.6622
G01 X2.4090 Y-30.7053
G01 X2.4066 Y-30.7550
G01 X2.4066 Y-37.4528
G01 X2.4090 Y-37.5024
G01 X2.4152 Y-37.5455
G01 X2.4169 Y-37.5545
G01 X2.4284 Y-37.5997
G01 X2.4429 Y-37.6407
G01 X2.4476 Y-37.6521
G01 X2.4663 Y-37.6914
G01 X2.4886 Y-37.7288
G01 X2.4954 Y-37.7390
G01 X2.5215 Y-37.7739
G01 X2.5527 Y-37.8085
G01 X4.6350 Y-39.8909
G01 X4.6350 Y-41.9031
G01 X4.6359 Y-41.9153
G01 X4.6380 Y-41.9274
G01 X4.6413 Y-41.9392
G01 X4.6457 Y-41.9507
G01 X4.6528 Y-41.9643
G01 X4.6596 Y-41.9745
G01 X4.6674 Y-41.9839
G01 X4.6761 Y-41.9926
G01 X4.6831 Y-41.9985
G01 X4.6931 Y-42.0056
G01 X4.7038 Y-42.0117
G01 X4.7150 Y-42.0166
G01 X4.7267 Y-42.0205
G01 X4.7386 Y-42.0232
G01 X4.7508 Y-42.0247
G01 X4.7600 Y-42.0250
G01 X7.3600 Y-42.0250
G01 X7.3753 Y-42.0241
G01 X7.3874 Y-42.0220
G01 X7.3963 Y-42.0196
G01 X7.4050 Y-42.0166
G01 X7.4134 Y-42.0130
G01 X7.4243 Y-42.0072
G01 X7.4345 Y-42.0004
G01 X7.4416 Y-41.9947
G01 X7.4505 Y-41.9862
G01 X7.4566 Y-41.9793
G01 X7.4639 Y-41.9694
G01 X7.4688 Y-41.9616
G01 X7.4743 Y-41.9507
G01 X7.4777 Y-41.9421
G01 X7.4805 Y-41.9333
G01 X7.4826 Y-41.9244
G01 X7.4841 Y-41.9153
G01 X7.4850 Y-41.9031
G01 X7.4850 Y-39.3000
G01 X7.4847 Y-39.2908
G01 X7.4832 Y-39.2786
G01 X7.4813 Y-39.2696
G01 X7.4777 Y-39.2579
G01 X7.4743 Y-39.2493
G01 X7.4688 Y-39.2384
G01 X7.4639 Y-39.2306
G01 X7.4566 Y-39.2207
G01 X7.4484 Y-39.2116
G01 X7.4393 Y-39.2034
G01 X7.4294 Y-39.1961
G01 X7.4162 Y-39.1883
G01 X7.4021 Y-39.1823
G01 X7.3904 Y-39.1787
G01 X7.3783 Y-39.1764
G01 X7.3631 Y-39.1750
G01 X5.3509 Y-39.1750
G01 X3.4189 Y-37.2431
G01 X3.4189 Y-30.9646
G01 X5.0586 Y-29.3250
G01 X7.3631 Y-29.3250
G01 X7.3753 Y-29.3241
G01 X7.3874 Y-29.3220
G01 X7.3992 Y-29.3187
G01 X7.4107 Y-29.3143
G01 X7.4216 Y-29.3088
G01 X7.4320 Y-29.3022
G01 X7.4416 Y-29.2947
G01 X7.4505 Y-29.2862
G01 X7.4585 Y-29.2769
G01 X7.4656 Y-29.2669
G01 X7.4717 Y-29.2562
G01 X7.4755 Y-29.2478
G01 X7.4796 Y-29.2363
G01 X7.4826 Y-29.2244
G01 X7.4841 Y-29.2153
G01 X7.4850 Y-29.2031
G01 X7.4850 Y-26.6000
G01 X7.4847 Y-26.5908
G01 X7.4832 Y-26.5786
G01 X7.4805 Y-26.5667
G01 X7.4766 Y-26.5550
G01 X7.4717 Y-26.5438
G01 X7.4656 Y-26.5331
G01 X7.4585 Y-26.5231
G01 X7.4505 Y-26.5138
G01 X7.4416 Y-26.5053
G01 X7.4320 Y-26.4978
G01 X7.4216 Y-26.4912
G01 X7.4107 Y-26.4857
G01 X7.3992 Y-26.4813
G01 X7.3874 Y-26.4780
G01 X7.3753 Y-26.4759
G01 X7.3661 Y-26.4752
G01 X4.7600 Y-26.4750
G01 X4.7477 Y-26.4756
G01 X4.7386 Y-26.4768
G01 X4.7267 Y-26.4795
G01 X4.7155 Y-26.4832
G01 X3.2673 Y-25.0350
G01 X3.2673 Y-18.7086
G01 X5.3509 Y-16.6250
G01 X7.3600 Y-16.6250
G01 X7.3692 Y-16.6247
G01 X7.3783 Y-16.6236
G01 X7.3874 Y-16.6220
G01 X7.3963 Y-16.6196
G01 X7.4050 Y-16.6166
G01 X7.4134 Y-16.6130
G01 X7.4243 Y-16.6072
G01 X7.4320 Y-16.6022
G01 X7.4416 Y-16.5947
G01 X7.4526 Y-16.5839
G01 X7.4604 Y-16.5745
G01 X7.4688 Y-16.5616
G01 X7.4755 Y-16.5478
G01 X7.4796 Y-16.5363
G01 X7.4832 Y-16.5214
G01 X7.4848 Y-16.5061
G01 X7.4850 Y-15.7062
G01 X12.4100 Y-15.7062
G01 X12.4535 Y-15.7042
G01 X12.4657 Y-15.7030
G01 X12.5088 Y-15.6965
G01 X12.5510 Y-15.6860
G01 X12.5628 Y-15.6825
G01 X12.6037 Y-15.6677
G01 X12.6431 Y-15.6492
G01 X12.6513 Y-15.6449
G01 X12.6912 Y-15.6209
G01 X12.7263 Y-15.5951
G01 X12.7358 Y-15.5873
G01 X12.7679 Y-15.5579
G01 X17.4350 Y-10.8909
G01 X18.4482 Y-10.8909
G01 X18.4482 Y-11.3847
G01 X18.4486 Y-11.3939
G01 X18.4501 Y-11.4060
G01 X18.4520 Y-11.4151
G01 X18.4545 Y-11.4239
G01 X18.4577 Y-11.4325
G01 X18.4616 Y-11.4409
G01 X18.4660 Y-11.4489
G01 X18.4728 Y-11.4591
G01 X18.4786 Y-11.4663
G01 X18.4848 Y-11.4731
G01 X18.4916 Y-11.4793
G01 X18.4988 Y-11.4851
G01 X18.5064 Y-11.4903
G01 X18.5143 Y-11.4949
G01 X18.5226 Y-11.4990
G01 X18.5311 Y-11.5024
G01 X18.5399 Y-11.5052
G01 X18.5488 Y-11.5073
G01 X18.5610 Y-11.5091
G01 X18.5732 Y-11.5097
G01 X20.4813 Y-11.5096
G01 X20.4935 Y-11.5087
G01 X20.5026 Y-11.5073
G01 X20.5145 Y-11.5043
G01 X20.5261 Y-11.5002
G01 X20.5372 Y-11.4949
G01 X20.5451 Y-11.4903
G01 X20.5551 Y-11.4832
G01 X20.5644 Y-11.4752
G01 X20.5729 Y-11.4663
G01 X20.5804 Y-11.4567
G01 X20.5870 Y-11.4463
G01 X20.5937 Y-11.4325
G01 X20.5978 Y-11.4210
G01 X20.6008 Y-11.4091
G01 X20.6026 Y-11.3969
G01 X20.6032 Y-11.3847
G01 X20.6032 Y-9.3816
G01 X20.6026 Y-9.3724
G01 X20.6008 Y-9.3603
G01 X20.5987 Y-9.3513
G01 X20.5959 Y-9.3426
G01 X20.5912 Y-9.3312
G01 X20.5870 Y-9.3231
G01 X20.5822 Y-9.3152
G01 X20.5768 Y-9.3078
G01 X20.5666 Y-9.2963
G01 X20.5575 Y-9.2881
G01 X20.5477 Y-9.2807
G01 X20.5344 Y-9.2730
G01 X20.5203 Y-9.2670
G01 X20.5086 Y-9.2634
G01 X20.4935 Y-9.2606
G01 X20.4813 Y-9.2597
G01 X19.1166 Y-9.2597
G01 X17.9962 Y-8.1393
G01 X17.9962 Y-5.8139
G01 X18.0089 Y-5.8056
G01 X18.0768 Y-5.7550
G01 X18.1441 Y-5.6941
G01 X18.2050 Y-5.6268
G01 X18.2556 Y-5.5589
G01 X18.2624 Y-5.5487
G01 X18.3058 Y-5.4760
G01 X18.3421 Y-5.3996
G01 X18.3468 Y-5.3883
G01 X18.3732 Y-5.3143
G01 X18.3768 Y-5.3026
G01 X18.3972 Y-5.2205
G01 X18.4098 Y-5.1368
G01 X18.4110 Y-5.1245
G01 X18.4150 Y-5.0400
G01 X18.4105 Y-4.9493
G01 X18.3972 Y-4.8595
G01 X18.3752 Y-4.7715
G01 X18.3446 Y-4.6860
G01 X18.3058 Y-4.6040
G01 X18.2591 Y-4.5261
G01 X18.2088 Y-4.4580
G01 X18.2031 Y-4.4508
G01 X18.1441 Y-4.3859
G01 X18.0815 Y-4.3290
G01 X18.0720 Y-4.3212
G01 X18.0039 Y-4.2709
G01 X17.9260 Y-4.2242
G01 X17.8496 Y-4.1879
G01 X17.8383 Y-4.1832
G01 X17.7643 Y-4.1568
G01 X17.7526 Y-4.1532
G01 X17.6705 Y-4.1328
G01 X17.5868 Y-4.1202
G01 X17.5745 Y-4.1190
G01 X17.4961 Y-4.1152
G01 X17.4839 Y-4.1152
G01 X17.3993 Y-4.1195
G01 X17.3095 Y-4.1328
G01 X17.2215 Y-4.1548
G01 X17.1417 Y-4.1832
G01 X17.1304 Y-4.1879
G01 X17.0594 Y-4.2215
G01 X17.0486 Y-4.2272
G01 X16.9761 Y-4.2709
G01 X16.9032 Y-4.3250
G01 X16.8404 Y-4.3817
G01 X16.8317 Y-4.3904
G01 X16.7750 Y-4.4532
G01 X16.7209 Y-4.5261
G01 X16.6742 Y-4.6040
G01 X16.6379 Y-4.6804
G01 X16.6332 Y-4.6917
G01 X16.6048 Y-4.7715
G01 X16.5828 Y-4.8595
G01 X16.5702 Y-4.9432
G01 X16.5690 Y-4.9555
G01 X16.5652 Y-5.0339
G01 X16.5650 Y-5.0431
G01 X16.5690 Y-5.1245
G01 X16.5702 Y-5.1368
G01 X16.5828 Y-5.2205
G01 X16.6032 Y-5.3026
G01 X16.6068 Y-5.3143
G01 X16.6354 Y-5.3940
G01 X16.6742 Y-5.4760
G01 X16.7176 Y-5.5487
G01 X16.7244 Y-5.5589
G01 X16.7750 Y-5.6268
G01 X16.8317 Y-5.6896
G01 X16.8404 Y-5.6983
G01 X16.9032 Y-5.7550
G01 X16.9711 Y-5.8056
G01 X16.9838 Y-5.8139
G01 X16.9838 Y-8.3520
G01 X16.9862 Y-8.3986
G01 X16.9935 Y-8.4477
G01 X17.0056 Y-8.4959
G01 X17.0201 Y-8.5369
G01 X17.0248 Y-8.5483
G01 X17.0436 Y-8.5876
G01 X17.0691 Y-8.6302
G01 X17.0987 Y-8.6701
G01 X17.1299 Y-8.7047
G01 X18.3037 Y-9.8785
G01 X17.2253 Y-9.8785
G01 X17.1788 Y-9.8807
G01 X17.1696 Y-9.8817
G01 X17.1326 Y-9.8872
G01 X17.1206 Y-9.8896
G01 X17.0784 Y-9.9003
G01 X17.0316 Y-9.9170
G01 X16.9922 Y-9.9355
G01 X16.9814 Y-9.9413
G01 X16.9441 Y-9.9638
G01 X16.9066 Y-9.9915
G01 X16.8996 Y-9.9974
G01 X16.8674 Y-10.0267
G01 X12.2003 Y-14.6938
G01 X7.4850 Y-14.6938
G01 X7.4850 Y-13.9000
G01 X7.4844 Y-13.8877
G01 X7.4832 Y-13.8786
G01 X7.4813 Y-13.8696
G01 X7.4787 Y-13.8608
G01 X7.4755 Y-13.8522
G01 X7.4717 Y-13.8438
G01 X7.4672 Y-13.8357
G01 X7.4622 Y-13.8280
G01 X7.4566 Y-13.8207
G01 X7.4505 Y-13.8138
G01 X7.4439 Y-13.8074
G01 X7.4369 Y-13.8015
G01 X7.4294 Y-13.7961
G01 X7.4162 Y-13.7883
G01 X7.4078 Y-13.7845
G01 X7.3992 Y-13.7813
G01 X7.3874 Y-13.7780
G01 X7.3783 Y-13.7764
G01 X7.3692 Y-13.7753
G01 X7.3600 Y-13.7750
G01 X4.7600 Y-13.7750
G01 X4.7447 Y-13.7759
G01 X4.7296 Y-13.7787
G01 X4.7150 Y-13.7834
G01 X4.7011 Y-13.7898
G01 X4.6931 Y-13.7944
G01 X4.6855 Y-13.7996
G01 X4.6738 Y-13.8095
G01 X4.6634 Y-13.8207
G01 X4.6578 Y-13.8280
G01 X4.6528 Y-13.8357
G01 X4.6457 Y-13.8493
G01 X4.6404 Y-13.8637
G01 X4.6368 Y-13.8786
G01 X4.6356 Y-13.8877
G01 X4.6350 Y-13.8969
G01 X4.6350 Y-15.9091
G01 X2.3989 Y-18.1454
G01 X2.3698 Y-18.1778
G01 X2.3402 Y-18.2177
G01 X2.3147 Y-18.2603
G01 X2.2934 Y-18.3052
G01 X2.2767 Y-18.3520
G01 X2.2646 Y-18.4002
G01 X2.2573 Y-18.4493
G01 X2.2551 Y-18.4928
G00 Z2.0000
G00 X1.9934 Y-18.5391
G01 F60.00
G01 Z-0.0500
G01 F100.00
G01 X1.9947 Y-18.5493
G01 X1.9962 Y-18.5690
G01 X1.9966 Y-18.5788
G01 X1.9966 Y-25.1648
G01 X1.9962 Y-25.1746
G01 X1.9947 Y-25.1943
G01 X1.9934 Y-25.2045
G01 X1.9962 Y-25.2582
G01 X1.9966 Y-25.2848
G01 X1.9990 Y-25.3113
G01 X2.0018 Y-25.3650
G01 X2.0041 Y-25.3750
G01 X2.0083 Y-25.3976
G01 X2.0092 Y-25.4045
G01 X2.0268 Y-25.4588
G01 X2.0434 Y-25.5202
G01 X2.0465 Y-25.5265
G01 X2.0553 Y-25.5478
G01 X2.0588 Y-25.5574
G01 X2.0905 Y-25.6126
G01 X2.1164 Y-25.6634
G01 X2.1207 Y-25.6689
G01 X2.1337 Y-25.6879
G01 X2.1392 Y-25.6965
G01 X2.1752 Y-25.7365
G01 X2.1922 Y-25.7570
G01 X2.2107 Y-25.7760
G01 X2.2467 Y-25.8160
G01 X2.2548 Y-25.8223
G01 X2.2698 Y-25.8352
G01 X2.2770 Y-25.8418
G01 X4.3053 Y-27.8702
G01 X4.3119 Y-27.8777
G01 X4.3288 Y-27.8987
G01 X4.3343 Y-27.9061
G01 X4.3408 Y-27.9165
G01 X4.3474 Y-27.9303
G01 X4.3514 Y-27.9419
G01 X4.3730 Y-28.0158
G01 X4.3756 Y-28.0304
G01 X4.3765 Y-28.0453
G01 X4.3763 Y-28.1128
G01 X4.3725 Y-28.1493
G01 X4.3710 Y-28.1583
G01 X4.3688 Y-28.1673
G01 X4.3637 Y-28.1817
G01 X4.3583 Y-28.1928
G01 X4.3228 Y-28.2577
G01 X4.3164 Y-28.2677
G01 X4.3091 Y-28.2770
G01 X4.3030 Y-28.2836
G01 X2.4287 Y-30.1579
G01 X2.4215 Y-30.1645
G01 X2.4065 Y-30.1773
G01 X2.3984 Y-30.1837
G01 X2.3624 Y-30.2237
G01 X2.3438 Y-30.2427
G01 X2.3274 Y-30.2626
G01 X2.2908 Y-30.3031
G01 X2.2854 Y-30.3118
G01 X2.2723 Y-30.3308
G01 X2.2681 Y-30.3363
G01 X2.2421 Y-30.3871
G01 X2.2105 Y-30.4423
G01 X2.2070 Y-30.4519
G01 X2.1981 Y-30.4732
G01 X2.1951 Y-30.4795
G01 X2.1784 Y-30.5409
G01 X2.1608 Y-30.5951
G01 X2.1599 Y-30.6020
G01 X2.1558 Y-30.6247
G01 X2.1535 Y-30.6347
G01 X2.1507 Y-30.6884
G01 X2.1483 Y-30.7149
G01 X2.1479 Y-30.7415
G01 X2.1451 Y-30.7952
G01 X2.1463 Y-30.8054
G01 X2.1479 Y-30.8251
G01 X2.1483 Y-30.8349
G01 X2.1483 Y-37.3728
G01 X2.1479 Y-37.3826
G01 X2.1463 Y-37.4023
G01 X2.1451 Y-37.4125
G01 X2.1479 Y-37.4662
G01 X2.1483 Y-37.4928
G01 X2.1507 Y-37.5193
G01 X2.1535 Y-37.5730
G01 X2.1558 Y-37.5830
G01 X2.1599 Y-37.6057
G01 X2.1608 Y-37.6126
G01 X2.1784 Y-37.6668
G01 X2.1951 Y-37.7282
G01 X2.1981 Y-37.7345
G01 X2.2070 Y-37.7558
G01 X2.2105 Y-37.7654
G01 X2.2421 Y-37.8206
G01 X2.2681 Y-37.8714
G01 X2.2723 Y-37.8769
G01 X2.2854 Y-37.8959
G01 X2.2909 Y-37.9046
G01 X2.3268 Y-37.9445
G01 X2.3438 Y-37.9650
G01 X2.3624 Y-37.9840
G01 X2.3984 Y-38.0240
G01 X2.4065 Y-38.0304
G01 X2.4215 Y-38.0432
G01 X2.4287 Y-38.0499
G01 X4.3030 Y-39.9241
G01 X4.3098 Y-39.9315
G01 X4.3307 Y-39.9575
G01 X4.3377 Y-39.9676
G01 X4.3423 Y-39.9756
G01 X4.3474 Y-39.9867
G01 X4.3505 Y-39.9954
G01 X4.3722 Y-40.0693
G01 X4.3752 Y-40.0838
G01 X4.3765 Y-40.0987
G01 X4.3765 Y-41.9414
G01 X4.3808 Y-41.9812
G01 X4.4201 Y-42.0861
G01 X4.4860 Y-42.1740
G01 X4.5739 Y-42.2399
G01 X4.6788 Y-42.2792
G01 X4.7186 Y-42.2835
G01 X7.4014 Y-42.2835
G01 X7.4412 Y-42.2792
G01 X7.5461 Y-42.2399
G01 X7.6340 Y-42.1740
G01 X7.6999 Y-42.0861
G01 X7.7392 Y-41.9812
G01 X7.7435 Y-41.9414
G01 X7.7435 Y-39.2586
G01 X7.7392 Y-39.2188
G01 X7.6999 Y-39.1139
G01 X7.6340 Y-39.0260
G01 X7.5461 Y-38.9601
G01 X7.4412 Y-38.9208
G01 X7.4014 Y-38.9165
G01 X5.5616 Y-38.9165
G01 X5.5483 Y-38.9158
G01 X5.5215 Y-38.9129
G01 X5.5124 Y-38.9116
G01 X5.4975 Y-38.9079
G01 X5.4888 Y-38.9048
G01 X5.4804 Y-38.9011
G01 X5.4075 Y-38.8613
G01 X5.3953 Y-38.8529
G01 X5.3841 Y-38.8430
G01 X3.7508 Y-37.2096
G01 X3.7418 Y-37.1997
G01 X3.7249 Y-37.1787
G01 X3.7194 Y-37.1713
G01 X3.7115 Y-37.1582
G01 X3.7075 Y-37.1499
G01 X3.7042 Y-37.1413
G01 X3.6808 Y-37.0616
G01 X3.6781 Y-37.0470
G01 X3.6773 Y-37.0321
G01 X3.6773 Y-31.1722
G01 X3.6780 Y-31.1622
G01 X3.6808 Y-31.1354
G01 X3.6822 Y-31.1263
G01 X3.6858 Y-31.1114
G01 X3.6901 Y-31.0999
G01 X3.6954 Y-31.0889
G01 X3.7309 Y-31.0240
G01 X3.7391 Y-31.0116
G01 X3.7487 Y-31.0002
G01 X5.0919 Y-29.6570
G01 X5.1018 Y-29.6481
G01 X5.1276 Y-29.6274
G01 X5.1406 Y-29.6192
G01 X5.1516 Y-29.6138
G01 X5.1660 Y-29.6086
G01 X5.2370 Y-29.5878
G01 X5.2515 Y-29.5848
G01 X5.2664 Y-29.5835
G01 X7.4014 Y-29.5835
G01 X7.4412 Y-29.5792
G01 X7.5461 Y-29.5399
G01 X7.6340 Y-29.4740
G01 X7.6999 Y-29.3861
G01 X7.7392 Y-29.2812
G01 X7.7435 Y-29.2414
G01 X7.7435 Y-26.5586
G01 X7.7392 Y-26.5188
G01 X7.6999 Y-26.4139
G01 X7.6340 Y-26.3260
G01 X7.5461 Y-26.2601
G01 X7.4412 Y-26.2208
G01 X7.4014 Y-26.2165
G01 X4.9180 Y-26.2165
G01 X4.9047 Y-26.2158
G01 X4.8718 Y-26.2121
G01 X4.8598 Y-26.2096
G01 X4.8481 Y-26.2059
G01 X4.8340 Y-26.1998
G01 X4.7664 Y-26.1628
G01 X4.7540 Y-26.1547
G01 X4.7427 Y-26.1451
G01 X3.5991 Y-25.0016
G01 X3.5923 Y-24.9942
G01 X3.5714 Y-24.9682
G01 X3.5660 Y-24.9607
G01 X3.5613 Y-24.9528
G01 X3.5559 Y-24.9418
G01 X3.5516 Y-24.9303
G01 X3.5299 Y-24.8564
G01 X3.5269 Y-24.8419
G01 X3.5259 Y-24.8330
G01 X3.5256 Y-24.8241
G01 X3.5256 Y-18.9195
G01 X3.5260 Y-18.9095
G01 X3.5296 Y-18.8763
G01 X3.5311 Y-18.8673
G01 X3.5342 Y-18.8554
G01 X3.5373 Y-18.8467
G01 X3.5423 Y-18.8356
G01 X3.5792 Y-18.7679
G01 X3.5874 Y-18.7555
G01 X3.5930 Y-18.7486
G01 X3.5991 Y-18.7421
G01 X5.3841 Y-16.9570
G01 X5.3941 Y-16.9481
G01 X5.4175 Y-16.9293
G01 X5.4250 Y-16.9240
G01 X5.4329 Y-16.9192
G01 X5.4411 Y-16.9150
G01 X5.4496 Y-16.9115
G01 X5.4583 Y-16.9086
G01 X5.5322 Y-16.8870
G01 X5.5438 Y-16.8848
G01 X5.5587 Y-16.8835
G01 X7.4014 Y-16.8835
G01 X7.4412 Y-16.8792
G01 X7.5461 Y-16.8399
G01 X7.6340 Y-16.7740
G01 X7.6999 Y-16.6861
G01 X7.7392 Y-16.5812
G01 X7.7435 Y-16.5414
G01 X7.7436 Y-16.2096
G01 X7.7444 Y-16.2007
G01 X7.7458 Y-16.1918
G01 X7.7592 Y-16.1305
G01 X7.7620 Y-16.1216
G01 X7.7667 Y-16.1100
G01 X7.7710 Y-16.1017
G01 X7.7777 Y-16.0911
G01 X7.7854 Y-16.0813
G01 X7.8340 Y-16.0253
G01 X7.8405 Y-16.0187
G01 X7.8475 Y-16.0125
G01 X7.8601 Y-16.0035
G01 X7.8737 Y-15.9961
G01 X7.8882 Y-15.9905
G01 X7.9650 Y-15.9680
G01 X7.9797 Y-15.9654
G01 X7.9945 Y-15.9645
G01 X12.3301 Y-15.9645
G01 X12.3399 Y-15.9649
G01 X12.3596 Y-15.9664
G01 X12.3698 Y-15.9677
G01 X12.4235 Y-15.9648
G01 X12.4501 Y-15.9645
G01 X12.4766 Y-15.9621
G01 X12.5303 Y-15.9592
G01 X12.5403 Y-15.9570
G01 X12.5629 Y-15.9528
G01 X12.5698 Y-15.9519
G01 X12.6241 Y-15.9343
G01 X12.6855 Y-15.9177
G01 X12.6918 Y-15.9146
G01 X12.7130 Y-15.9058
G01 X12.7227 Y-15.9023
G01 X12.7779 Y-15.8706
G01 X12.8287 Y-15.8447
G01 X12.8342 Y-15.8404
G01 X12.8532 Y-15.8274
G01 X12.8618 Y-15.8219
G01 X12.9018 Y-15.7859
G01 X12.9223 Y-15.7689
G01 X12.9413 Y-15.7504
G01 X12.9813 Y-15.7144
G01 X12.9876 Y-15.7063
G01 X13.0004 Y-15.6913
G01 X13.0071 Y-15.6841
G01 X17.4685 Y-11.2227
G01 X17.4784 Y-11.2138
G01 X17.5043 Y-11.1931
G01 X17.5172 Y-11.1849
G01 X17.5310 Y-11.1783
G01 X17.5426 Y-11.1742
G01 X17.6136 Y-11.1534
G01 X17.6252 Y-11.1509
G01 X17.6370 Y-11.1495
G01 X17.6460 Y-11.1492
G01 X17.9387 Y-11.1492
G01 X17.9506 Y-11.1497
G01 X17.9624 Y-11.1514
G01 X18.0207 Y-11.1641
G01 X18.0297 Y-11.1667
G01 X18.0385 Y-11.1699
G01 X18.0470 Y-11.1738
G01 X18.0552 Y-11.1783
G01 X18.0631 Y-11.1834
G01 X18.0705 Y-11.1891
G01 X18.1266 Y-11.2376
G01 X18.1334 Y-11.2439
G01 X18.1417 Y-11.2532
G01 X18.1473 Y-11.2606
G01 X18.1539 Y-11.2711
G01 X18.1581 Y-11.2794
G01 X18.1617 Y-11.2880
G01 X18.1647 Y-11.2968
G01 X18.1847 Y-11.3650
G01 X18.1875 Y-11.3765
G01 X18.1888 Y-11.3853
G01 X18.1896 Y-11.3942
G01 X18.1897 Y-11.4260
G01 X18.1941 Y-11.4659
G01 X18.2334 Y-11.5707
G01 X18.2993 Y-11.6586
G01 X18.3872 Y-11.7245
G01 X18.4921 Y-11.7639
G01 X18.5319 Y-11.7682
G01 X20.5196 Y-11.7682
G01 X20.5594 Y-11.7639
G01 X20.6643 Y-11.7245
G01 X20.7522 Y-11.6586
G01 X20.8181 Y-11.5707
G01 X20.8224 Y-11.5602
G01 X20.8325 Y-11.5385
G01 X20.8384 Y-11.5283
G01 X20.8453 Y-11.5186
G01 X20.8552 Y-11.5075
G01 X20.9055 Y-11.4574
G01 X20.9147 Y-11.4490
G01 X20.9221 Y-11.4434
G01 X20.9300 Y-11.4384
G01 X20.9409 Y-11.4326
G01 X20.9495 Y-11.4290
G01 X20.9613 Y-11.4251
G01 X21.0398 Y-11.4081
G01 X21.0490 Y-11.4067
G01 X21.0614 Y-11.4059
G01 X21.0707 Y-11.4061
G01 X21.0800 Y-11.4070
G01 X21.0922 Y-11.4093
G01 X21.1011 Y-11.4118
G01 X21.1735 Y-11.4387
G01 X21.1817 Y-11.4421
G01 X21.1897 Y-11.4462
G01 X21.1974 Y-11.4507
G01 X21.2047 Y-11.4558
G01 X21.3517 Y-11.5662
G01 X21.5464 Y-11.6675
G01 X21.6867 Y-11.7134
G01 X21.6867 Y-11.4397
G01 X21.6591 Y-11.4299
G01 X21.6506 Y-11.4265
G01 X21.5633 Y-11.3852
G01 X21.5551 Y-11.3810
G01 X21.4671 Y-11.3281
G01 X21.3846 Y-11.2670
G01 X21.3775 Y-11.2611
G01 X21.3083 Y-11.1983
G01 X21.2996 Y-11.1896
G01 X21.2328 Y-11.1157
G01 X21.1716 Y-11.0333
G01 X21.1665 Y-11.0256
G01 X21.1185 Y-10.9454
G01 X21.1127 Y-10.9346
G01 X21.0702 Y-10.8445
G01 X21.0346 Y-10.7450
G01 X21.0103 Y-10.6484
G01 X21.0079 Y-10.6363
G01 X20.9934 Y-10.5378
G01 X20.9884 Y-10.4383
G01 X20.9883 Y-10.3341
G01 X20.9932 Y-10.2346
G01 X20.9942 Y-10.2255
G01 X21.0079 Y-10.1330
G01 X21.0103 Y-10.1210
G01 X21.0346 Y-10.0244
G01 X21.0702 Y-9.9248
G01 X21.1155 Y-9.8292
G01 X21.1698 Y-9.7386
G01 X21.2328 Y-9.6536
G01 X21.2996 Y-9.5797
G01 X21.3083 Y-9.5710
G01 X21.3775 Y-9.5083
G01 X21.3870 Y-9.5005
G01 X21.4671 Y-9.4413
G01 X21.5525 Y-9.3899
G01 X21.5595 Y-9.3860
G01 X21.5595 Y-9.0996
G01 X21.5164 Y-9.1149
G01 X21.3242 Y-9.2210
G01 X21.2073 Y-9.3132
G01 X21.1815 Y-9.3305
G01 X21.1707 Y-9.3365
G01 X21.1595 Y-9.3414
G01 X21.1478 Y-9.3453
G01 X21.0725 Y-9.3619
G01 X21.0571 Y-9.3643
G01 X21.0478 Y-9.3648
G01 X21.0385 Y-9.3646
G01 X21.0293 Y-9.3637
G01 X21.0201 Y-9.3622
G01 X21.0110 Y-9.3599
G01 X21.0022 Y-9.3570
G01 X20.9299 Y-9.3300
G01 X20.9160 Y-9.3230
G01 X20.9031 Y-9.3144
G01 X20.8914 Y-9.3042
G01 X20.8830 Y-9.2951
G01 X20.8365 Y-9.2334
G01 X20.8314 Y-9.2261
G01 X20.8255 Y-9.2158
G01 X20.8217 Y-9.2078
G01 X20.8181 Y-9.1986
G01 X20.7522 Y-9.1107
G01 X20.6643 Y-9.0448
G01 X20.5594 Y-9.0055
G01 X20.5196 Y-9.0012
G01 X19.3274 Y-9.0012
G01 X19.3173 Y-9.0008
G01 X19.2842 Y-8.9972
G01 X19.2751 Y-8.9957
G01 X19.2632 Y-8.9926
G01 X19.2546 Y-8.9895
G01 X19.2434 Y-8.9844
G01 X19.1758 Y-8.9475
G01 X19.1634 Y-8.9393
G01 X19.1520 Y-8.9297
G01 X18.3280 Y-8.1058
G01 X18.3191 Y-8.0958
G01 X18.3022 Y-8.0749
G01 X18.2967 Y-8.0675
G01 X18.2887 Y-8.0544
G01 X18.2825 Y-8.0404
G01 X18.2796 Y-8.0317
G01 X18.2580 Y-7.9578
G01 X18.2554 Y-7.9432
G01 X18.2545 Y-7.9283
G01 X18.2545 Y-6.0532
G01 X18.2549 Y-6.0432
G01 X18.2581 Y-6.0130
G01 X18.2594 Y-6.0039
G01 X18.2614 Y-5.9950
G01 X18.2662 Y-5.9804
G01 X18.2712 Y-5.9692
G01 X18.3082 Y-5.9016
G01 X18.3163 Y-5.8892
G01 X18.3219 Y-5.8822
G01 X18.3280 Y-5.8757
G01 X18.4001 Y-5.8036
G01 X18.5194 Y-5.6332
G01 X18.5260 Y-5.6219
G01 X18.5311 Y-5.6146
G01 X18.5367 Y-5.6076
G01 X18.5700 Y-5.5692
G01 X18.5789 Y-5.5604
G01 X18.5886 Y-5.5525
G01 X18.6018 Y-5.5441
G01 X18.6131 Y-5.5386
G01 X18.6877 Y-5.5088
G01 X18.6996 Y-5.5054
G01 X18.7118 Y-5.5031
G01 X18.7242 Y-5.5021
G01 X18.7397 Y-5.5026
G01 X18.7520 Y-5.5043
G01 X18.8247 Y-5.5184
G01 X18.8367 Y-5.5216
G01 X18.8483 Y-5.5260
G01 X18.8621 Y-5.5331
G01 X18.8749 Y-5.5419
G01 X18.8843 Y-5.5500
G01 X18.9149 Y-5.5792
G01 X19.1260 Y-5.3680
G01 X19.1048 Y-5.3085
G01 X19.0841 Y-5.2264
G01 X19.0822 Y-5.2174
G01 X19.0695 Y-5.1307
G01 X19.0650 Y-5.0400
G01 X19.0695 Y-4.9493
G01 X19.0822 Y-4.8626
G01 X19.0841 Y-4.8536
G01 X19.1048 Y-4.7715
G01 X19.1260 Y-4.7120
G01 X18.9172 Y-4.5032
G01 X18.9062 Y-4.5153
G01 X18.8969 Y-4.5237
G01 X18.8842 Y-4.5327
G01 X18.8732 Y-4.5388
G01 X18.8646 Y-4.5426
G01 X18.7958 Y-4.5701
G01 X18.7840 Y-4.5739
G01 X18.7718 Y-4.5764
G01 X18.7564 Y-4.5779
G01 X18.7471 Y-4.5778
G01 X18.7378 Y-4.5771
G01 X18.7286 Y-4.5757
G01 X18.6589 Y-4.5623
G01 X18.6468 Y-4.5593
G01 X18.6380 Y-4.5563
G01 X18.6295 Y-4.5527
G01 X18.6185 Y-4.5469
G01 X18.6082 Y-4.5400
G01 X18.5986 Y-4.5321
G01 X18.5449 Y-4.4810
G01 X18.5348 Y-4.4701
G01 X18.5260 Y-4.4581
G01 X18.5194 Y-4.4468
G01 X18.4001 Y-4.2764
G01 X18.2536 Y-4.1299
G01 X18.0840 Y-4.0111
G01 X17.8963 Y-3.9236
G01 X17.6963 Y-3.8700
G01 X17.4900 Y-3.8520
G01 X17.2837 Y-3.8700
G01 X17.0837 Y-3.9236
G01 X16.8960 Y-4.0111
G01 X16.8001 Y-4.0783
G01 X16.7264 Y-4.1299
G01 X16.5799 Y-4.2764
G01 X16.4611 Y-4.4460
G01 X16.3736 Y-4.6337
G01 X16.3200 Y-4.8337
G01 X16.3020 Y-5.0400
G01 X16.3200 Y-5.2463
G01 X16.3736 Y-5.4463
G01 X16.4611 Y-5.6340
G01 X16.5799 Y-5.8036
G01 X16.6566 Y-5.8806
G01 X16.6797 Y-5.9090
G01 X16.6883 Y-5.9218
G01 X16.6952 Y-5.9354
G01 X16.6995 Y-5.9469
G01 X16.7212 Y-6.0208
G01 X16.7232 Y-6.0295
G01 X16.7246 Y-6.0383
G01 X16.7255 Y-6.0532
G01 X16.7255 Y-8.2690
G01 X16.7251 Y-8.2788
G01 X16.7236 Y-8.2985
G01 X16.7223 Y-8.3087
G01 X16.7252 Y-8.3624
G01 X16.7255 Y-8.3890
G01 X16.7279 Y-8.4155
G01 X16.7308 Y-8.4692
G01 X16.7330 Y-8.4792
G01 X16.7372 Y-8.5019
G01 X16.7381 Y-8.5088
G01 X16.7557 Y-8.5630
G01 X16.7723 Y-8.6244
G01 X16.7754 Y-8.6307
G01 X16.7842 Y-8.6520
G01 X16.7877 Y-8.6616
G01 X16.8194 Y-8.7168
G01 X16.8453 Y-8.7676
G01 X16.8496 Y-8.7731
G01 X16.8626 Y-8.7921
G01 X16.8681 Y-8.8008
G01 X16.9041 Y-8.8407
G01 X16.9211 Y-8.8612
G01 X16.9396 Y-8.8802
G01 X16.9756 Y-8.9202
G01 X16.9837 Y-8.9266
G01 X16.9987 Y-8.9394
G01 X17.0059 Y-8.9461
G01 X17.2578 Y-9.1979
G01 X17.2680 Y-9.2094
G01 X17.2734 Y-9.2169
G01 X17.2782 Y-9.2247
G01 X17.3142 Y-9.2921
G01 X17.3182 Y-9.3003
G01 X17.3215 Y-9.3087
G01 X17.3243 Y-9.3173
G01 X17.3264 Y-9.3261
G01 X17.3279 Y-9.3351
G01 X17.3289 Y-9.3472
G01 X17.3286 Y-9.3592
G01 X17.3217 Y-9.4361
G01 X17.3202 Y-9.4453
G01 X17.3182 Y-9.4543
G01 X17.3154 Y-9.4632
G01 X17.3120 Y-9.4719
G01 X17.3049 Y-9.4857
G01 X17.2980 Y-9.4960
G01 X17.2505 Y-9.5569
G01 X17.2444 Y-9.5639
G01 X17.2354 Y-9.5724
G01 X17.2281 Y-9.5782
G01 X17.2178 Y-9.5851
G01 X17.2096 Y-9.5896
G01 X17.2011 Y-9.5934
G01 X17.1631 Y-9.6069
G01 X17.1503 Y-9.6137
G01 X17.1360 Y-9.6192
G01 X17.1211 Y-9.6229
G01 X17.1062 Y-9.6251
G01 X17.0951 Y-9.6277
G01 X17.0724 Y-9.6319
G01 X17.0655 Y-9.6328
G01 X17.0112 Y-9.6504
G01 X16.9498 Y-9.6670
G01 X16.9405 Y-9.6713
G01 X16.9192 Y-9.6801
G01 X16.9127 Y-9.6824
G01 X16.8632 Y-9.7109
G01 X16.8066 Y-9.7400
G01 X16.8011 Y-9.7442
G01 X16.7822 Y-9.7573
G01 X16.7735 Y-9.7628
G01 X16.7311 Y-9.8009
G01 X16.7131 Y-9.8158
G01 X16.6940 Y-9.8343
G01 X16.6541 Y-9.8703
G01 X16.6477 Y-9.8784
G01 X16.6349 Y-9.8934
G01 X16.6282 Y-9.9006
G01 X12.1669 Y-14.3620
G01 X12.1569 Y-14.3709
G01 X12.1359 Y-14.3878
G01 X12.1286 Y-14.3933
G01 X12.1181 Y-14.3998
G01 X12.1043 Y-14.4064
G01 X12.0927 Y-14.4104
G01 X12.0217 Y-14.4312
G01 X12.0072 Y-14.4342
G01 X11.9923 Y-14.4355
G01 X7.9945 Y-14.4355
G01 X7.9826 Y-14.4349
G01 X7.9679 Y-14.4326
G01 X7.9095 Y-14.4198
G01 X7.9006 Y-14.4170
G01 X7.8919 Y-14.4135
G01 X7.8834 Y-14.4095
G01 X7.8753 Y-14.4048
G01 X7.8676 Y-14.3994
G01 X7.8603 Y-14.3936
G01 X7.8066 Y-14.3471
G01 X7.7998 Y-14.3407
G01 X7.7915 Y-14.3315
G01 X7.7842 Y-14.3215
G01 X7.7779 Y-14.3108
G01 X7.7726 Y-14.2996
G01 X7.7686 Y-14.2878
G01 X7.7478 Y-14.2169
G01 X7.7452 Y-14.2052
G01 X7.7438 Y-14.1934
G01 X7.7435 Y-14.1845
G01 X7.7435 Y-13.8586
G01 X7.7392 Y-13.8188
G01 X7.6999 Y-13.7139
G01 X7.6340 Y-13.6260
G01 X7.5461 Y-13.5601
G01 X7.4412 Y-13.5208
G01 X7.4014 Y-13.5165
G01 X4.7186 Y-13.5165
G01 X4.6788 Y-13.5208
G01 X4.5739 Y-13.5601
G01 X4.4860 Y-13.6260
G01 X4.4201 Y-13.7139
G01 X4.3808 Y-13.8188
G01 X4.3765 Y-13.8586
G01 X4.3765 Y-15.6984
G01 X4.3758 Y-15.7117
G01 X4.3725 Y-15.7416
G01 X4.3710 Y-15.7506
G01 X4.3688 Y-15.7596
G01 X4.3659 Y-15.7683
G01 X4.3598 Y-15.7823
G01 X4.3213 Y-15.8525
G01 X4.3129 Y-15.8647
G01 X4.3030 Y-15.8759
G01 X2.2770 Y-17.9018
G01 X2.2698 Y-17.9085
G01 X2.2548 Y-17.9213
G01 X2.2467 Y-17.9276
G01 X2.2107 Y-17.9676
G01 X2.1922 Y-17.9867
G01 X2.1757 Y-18.0065
G01 X2.1392 Y-18.0471
G01 X2.1337 Y-18.0558
G01 X2.1207 Y-18.0747
G01 X2.1164 Y-18.0802
G01 X2.0905 Y-18.1310
G01 X2.0588 Y-18.1862
G01 X2.0553 Y-18.1959
G01 X2.0465 Y-18.2171
G01 X2.0434 Y-18.2234
G01 X2.0268 Y-18.2848
G01 X2.0092 Y-18.3391
G01 X2.0083 Y-18.3460
G01 X2.0041 Y-18.3687
G01 X2.0018 Y-18.3787
G01 X1.9990 Y-18.4323
G01 X1.9966 Y-18.4588
G01 X1.9962 Y-18.4854
G01 X1.9934 Y-18.5391
G00 Z2.0000
G00 X4.6426 Y-22.6742
G01 F60.00
G01 Z-0.0500
G01 F100.00
G01 X4.6414 Y-22.6864
G01 X4.6350 Y-22.8200
G01 X4.6419 Y-22.9597
G01 X4.6624 Y-23.0980
G01 X4.6964 Y-23.2337
G01 X4.7435 Y-23.3653
G01 X4.8033 Y-23.4917
G01 X4.8752 Y-23.6117
G01 X4.9585 Y-23.7240
G01 X5.0524 Y-23.8276
G01 X5.1560 Y-23.9215
G01 X5.2683 Y-24.0048
G01 X5.3883 Y-24.0767
G01 X5.5147 Y-24.1365
G01 X5.6463 Y-24.1836
G01 X5.7820 Y-24.2176
G01 X5.9203 Y-24.2381
G01 X6.0600 Y-24.2450
G01 X6.1936 Y-24.2386
G01 X6.2058 Y-24.2374
G01 X6.3320 Y-24.2187
G01 X6.3440 Y-24.2163
G01 X6.4737 Y-24.1836
G01 X6.6053 Y-24.1365
G01 X6.7317 Y-24.0767
G01 X6.8491 Y-24.0065
G01 X6.8567 Y-24.0013
G01 X6.9640 Y-23.9215
G01 X7.0632 Y-23.8319
G01 X7.0719 Y-23.8232
G01 X7.1575 Y-23.7287
G01 X7.1635 Y-23.7216
G01 X7.2448 Y-23.6117
G01 X7.3153 Y-23.4944
G01 X7.3195 Y-23.4863
G01 X7.3753 Y-23.3681
G01 X7.3787 Y-23.3596
G01 X7.3907 Y-23.3262
G01 X12.2003 Y-23.3262
G01 X14.5943 Y-25.7201
G01 X14.6289 Y-25.7513
G01 X14.6638 Y-25.7773
G01 X14.6740 Y-25.7842
G01 X14.7114 Y-25.8064
G01 X14.7563 Y-25.8277
G01 X14.7972 Y-25.8425
G01 X14.8090 Y-25.8460
G01 X14.8453 Y-25.8551
G01 X14.8543 Y-25.8570
G01 X14.9004 Y-25.8638
G01 X14.9500 Y-25.8662
G01 X18.7063 Y-25.8662
G01 X18.7583 Y-25.9534
G01 X18.7651 Y-25.9636
G01 X18.8246 Y-26.0436
G01 X18.8956 Y-26.1219
G01 X18.9739 Y-26.1929
G01 X19.0539 Y-26.2524
G01 X19.0641 Y-26.2592
G01 X19.1496 Y-26.3103
G01 X19.2395 Y-26.3530
G01 X19.2509 Y-26.3577
G01 X19.3447 Y-26.3911
G01 X19.4473 Y-26.4168
G01 X19.5458 Y-26.4316
G01 X19.5549 Y-26.4326
G01 X19.6544 Y-26.4375
G01 X19.7586 Y-26.4373
G01 X19.8581 Y-26.4323
G01 X19.9627 Y-26.4168
G01 X20.0653 Y-26.3911
G01 X20.1591 Y-26.3577
G01 X20.1705 Y-26.3530
G01 X20.2549 Y-26.3130
G01 X20.2658 Y-26.3072
G01 X20.3511 Y-26.2559
G01 X20.4361 Y-26.1929
G01 X20.5144 Y-26.1219
G01 X20.5854 Y-26.0436
G01 X20.6484 Y-25.9586
G01 X20.6997 Y-25.8733
G01 X20.7055 Y-25.8624
G01 X20.7455 Y-25.7780
G01 X20.7502 Y-25.7666
G01 X20.7836 Y-25.6728
G01 X20.8080 Y-25.5762
G01 X20.8099 Y-25.5672
G01 X20.8248 Y-25.4656
G01 X20.8300 Y-25.3600
G01 X20.8248 Y-25.2544
G01 X20.8093 Y-25.1498
G01 X20.7836 Y-25.0472
G01 X20.7480 Y-24.9477
G01 X20.7028 Y-24.8521
G01 X20.6517 Y-24.7666
G01 X20.6449 Y-24.7564
G01 X20.5854 Y-24.6764
G01 X20.5186 Y-24.6025
G01 X20.5100 Y-24.5939
G01 X20.4361 Y-24.5271
G01 X20.3561 Y-24.4676
G01 X20.3459 Y-24.4608
G01 X20.2658 Y-24.4128
G01 X20.2549 Y-24.4070
G01 X20.1648 Y-24.3645
G01 X20.0653 Y-24.3289
G01 X19.9627 Y-24.3032
G01 X19.8612 Y-24.2880
G01 X19.8520 Y-24.2872
G01 X19.7556 Y-24.2825
G01 X19.6544 Y-24.2825
G01 X19.5519 Y-24.2877
G01 X19.4503 Y-24.3026
G01 X19.4413 Y-24.3045
G01 X19.3506 Y-24.3273
G01 X19.3389 Y-24.3308
G01 X19.2452 Y-24.3645
G01 X19.1523 Y-24.4083
G01 X19.1442 Y-24.4128
G01 X19.0641 Y-24.4608
G01 X19.0539 Y-24.4676
G01 X18.9739 Y-24.5271
G01 X18.8956 Y-24.5981
G01 X18.8246 Y-24.6764
G01 X18.7651 Y-24.7564
G01 X18.7583 Y-24.7666
G01 X18.7063 Y-24.8538
G01 X15.1597 Y-24.8538
G01 X12.7657 Y-22.4599
G01 X12.7311 Y-22.4287
G01 X12.6962 Y-22.4027
G01 X12.6860 Y-22.3958
G01 X12.6486 Y-22.3736
G01 X12.6037 Y-22.3523
G01 X12.5628 Y-22.3375
G01 X12.5510 Y-22.3340
G01 X12.5147 Y-22.3249
G01 X12.5057 Y-22.3230
G01 X12.4596 Y-22.3162
G01 X12.4100 Y-22.3138
G01 X7.3907 Y-22.3138
G01 X7.3787 Y-22.2804
G01 X7.3753 Y-22.2719
G01 X7.3195 Y-22.1537
G01 X7.3153 Y-22.1456
G01 X7.2448 Y-22.0283
G01 X7.1635 Y-21.9184
G01 X7.1575 Y-21.9113
G01 X7.0719 Y-21.8168
G01 X7.0632 Y-21.8081
G01 X6.9640 Y-21.7185
G01 X6.8542 Y-21.6369
G01 X6.8465 Y-21.6319
G01 X6.7371 Y-21.5663
G01 X6.7263 Y-21.5605
G01 X6.6053 Y-21.5035
G01 X6.4737 Y-21.4564
G01 X6.3380 Y-21.4224
G01 X6.2058 Y-21.4026
G01 X6.1936 Y-21.4014
G01 X6.0661 Y-21.3952
G01 X6.0539 Y-21.3952
G01 X5.9203 Y-21.4019
G01 X5.7820 Y-21.4224
G01 X5.6463 Y-21.4564
G01 X5.5147 Y-21.5035
G01 X5.3883 Y-21.5633
G01 X5.2683 Y-21.6352
G01 X5.1560 Y-21.7185
G01 X5.0568 Y-21.8081
G01 X5.0481 Y-21.8168
G01 X4.9585 Y-21.9160
G01 X4.8787 Y-22.0233
G01 X4.8719 Y-22.0335
G01 X4.8063 Y-22.1429
G01 X4.8005 Y-22.1537
G01 X4.7435 Y-22.2747
G01 X4.6964 Y-22.4063
G01 X4.6624 Y-22.5420
G01 X4.6426 Y-22.6742
G00 Z2.0000
G00 X4.3724 Y-22.8642
G01 F60.00
G01 Z-0.0500
G01 F100.00
G01 X4.3974 Y-23.1132
G01 X4.4590 Y-23.3557
G01 X4.5558 Y-23.5864
G01 X4.6856 Y-23.8004
G01 X4.8456 Y-23.9927
G01 X5.0323 Y-24.1594
G01 X5.2415 Y-24.2966
G01 X5.4554 Y-24.3951
G01 X5.4688 Y-24.4013
G01 X5.7090 Y-24.4713
G01 X5.9569 Y-24.5051
G01 X6.2071 Y-24.5018
G01 X6.4541 Y-24.4616
G01 X6.6924 Y-24.3853
G01 X6.9168 Y-24.2746
G01 X7.1224 Y-24.1320
G01 X7.3047 Y-23.9605
G01 X7.4596 Y-23.7640
G01 X7.4915 Y-23.7084
G01 X7.5000 Y-23.6960
G01 X7.5078 Y-23.6869
G01 X7.5491 Y-23.6434
G01 X7.5558 Y-23.6369
G01 X7.5655 Y-23.6290
G01 X7.5759 Y-23.6220
G01 X7.5842 Y-23.6175
G01 X7.5956 Y-23.6125
G01 X7.6045 Y-23.6096
G01 X7.6726 Y-23.5896
G01 X7.6813 Y-23.5874
G01 X7.6901 Y-23.5858
G01 X7.6989 Y-23.5848
G01 X7.7079 Y-23.5845
G01 X11.9894 Y-23.5845
G01 X11.9994 Y-23.5849
G01 X12.0326 Y-23.5885
G01 X12.0416 Y-23.5900
G01 X12.0506 Y-23.5922
G01 X12.0622 Y-23.5962
G01 X12.0733 Y-23.6012
G01 X12.1410 Y-23.6382
G01 X12.1485 Y-23.6429
G01 X12.1557 Y-23.6481
G01 X12.1669 Y-23.6580
G01 X14.3529 Y-25.8441
G01 X14.3596 Y-25.8513
G01 X14.3724 Y-25.8663
G01 X14.3787 Y-25.8744
G01 X14.4187 Y-25.9104
G01 X14.4377 Y-25.9289
G01 X14.4576 Y-25.9454
G01 X14.4982 Y-25.9819
G01 X14.5068 Y-25.9874
G01 X14.5258 Y-26.0004
G01 X14.5313 Y-26.0047
G01 X14.5879 Y-26.0338
G01 X14.6373 Y-26.0623
G01 X14.6439 Y-26.0646
G01 X14.6652 Y-26.0733
G01 X14.6745 Y-26.0777
G01 X14.7296 Y-26.0925
G01 X14.7902 Y-26.1119
G01 X14.7971 Y-26.1128
G01 X14.8198 Y-26.1170
G01 X14.8297 Y-26.1192
G01 X14.8834 Y-26.1221
G01 X14.9099 Y-26.1245
G01 X14.9365 Y-26.1248
G01 X14.9902 Y-26.1277
G01 X15.0004 Y-26.1264
G01 X15.0201 Y-26.1249
G01 X15.0299 Y-26.1245
G01 X18.4372 Y-26.1245
G01 X18.4460 Y-26.1248
G01 X18.4548 Y-26.1258
G01 X18.5049 Y-26.1342
G01 X18.5170 Y-26.1375
G01 X18.5258 Y-26.1408
G01 X18.5343 Y-26.1447
G01 X18.5426 Y-26.1492
G01 X18.5504 Y-26.1544
G01 X18.6083 Y-26.1954
G01 X18.6177 Y-26.2028
G01 X18.6243 Y-26.2088
G01 X18.6323 Y-26.2176
G01 X18.6771 Y-26.2743
G01 X18.8397 Y-26.4223
G01 X18.8480 Y-26.4284
G01 X18.8750 Y-26.4511
G01 X18.8860 Y-26.4616
G01 X18.8956 Y-26.4733
G01 X18.9037 Y-26.4862
G01 X18.9378 Y-26.5553
G01 X18.9416 Y-26.5638
G01 X18.9464 Y-26.5785
G01 X18.9494 Y-26.5938
G01 X18.9505 Y-26.6061
G01 X18.9500 Y-26.6216
G01 X18.9415 Y-26.6952
G01 X18.9388 Y-26.7105
G01 X18.9352 Y-26.7224
G01 X18.9305 Y-26.7339
G01 X18.9247 Y-26.7449
G01 X18.9179 Y-26.7552
G01 X18.8690 Y-26.8150
G01 X18.8589 Y-26.8259
G01 X18.8523 Y-26.8319
G01 X18.8452 Y-26.8373
G01 X18.8141 Y-26.8586
G01 X18.6554 Y-27.0103
G01 X18.5235 Y-27.1859
G01 X18.4221 Y-27.3807
G01 X18.3763 Y-27.5210
G01 X18.6499 Y-27.5210
G01 X18.6598 Y-27.4934
G01 X18.6632 Y-27.4848
G01 X18.7045 Y-27.3976
G01 X18.7087 Y-27.3894
G01 X18.7616 Y-27.3014
G01 X18.8208 Y-27.2213
G01 X18.8266 Y-27.2141
G01 X18.8956 Y-27.1381
G01 X18.9739 Y-27.0671
G01 X19.0589 Y-27.0041
G01 X19.1442 Y-26.9528
G01 X19.1523 Y-26.9483
G01 X19.2452 Y-26.9045
G01 X19.3389 Y-26.8708
G01 X19.3506 Y-26.8673
G01 X19.4473 Y-26.8432
G01 X19.5458 Y-26.8284
G01 X19.5549 Y-26.8274
G01 X19.6544 Y-26.8225
G01 X19.7525 Y-26.8225
G01 X19.8581 Y-26.8277
G01 X19.9567 Y-26.8422
G01 X19.9687 Y-26.8445
G01 X20.0653 Y-26.8689
G01 X20.1648 Y-26.9045
G01 X20.2549 Y-26.9470
G01 X20.2658 Y-26.9528
G01 X20.3459 Y-27.0008
G01 X20.3537 Y-27.0058
G01 X20.4361 Y-27.0671
G01 X20.5100 Y-27.1339
G01 X20.5186 Y-27.1425
G01 X20.5814 Y-27.2118
G01 X20.5873 Y-27.2188
G01 X20.6484 Y-27.3014
G01 X20.7013 Y-27.3894
G01 X20.7055 Y-27.3976
G01 X20.7468 Y-27.4848
G01 X20.7502 Y-27.4934
G01 X20.7601 Y-27.5210
G01 X21.0351 Y-27.5210
G01 X20.9748 Y-27.3506
G01 X20.8687 Y-27.1584
G01 X20.7326 Y-26.9861
G01 X20.5702 Y-26.8383
G01 X20.5620 Y-26.8322
G01 X20.5327 Y-26.8075
G01 X20.5241 Y-26.7990
G01 X20.5181 Y-26.7921
G01 X20.5110 Y-26.7822
G01 X20.5049 Y-26.7718
G01 X20.4722 Y-26.7053
G01 X20.4685 Y-26.6968
G01 X20.4644 Y-26.6851
G01 X20.4616 Y-26.6730
G01 X20.4599 Y-26.6607
G01 X20.4595 Y-26.6483
G01 X20.4603 Y-26.6359
G01 X20.4685 Y-26.5654
G01 X20.4705 Y-26.5531
G01 X20.4738 Y-26.5411
G01 X20.4782 Y-26.5295
G01 X20.4837 Y-26.5184
G01 X20.4922 Y-26.5054
G01 X20.5410 Y-26.4456
G01 X20.5511 Y-26.4347
G01 X20.5577 Y-26.4287
G01 X20.5648 Y-26.4233
G01 X20.5962 Y-26.4018
G01 X20.7550 Y-26.2500
G01 X20.8869 Y-26.0744
G01 X20.9883 Y-25.8795
G01 X21.0566 Y-25.6707
G01 X21.0898 Y-25.4535
G01 X21.0871 Y-25.2338
G01 X21.0486 Y-25.0176
G01 X20.9753 Y-24.8105
G01 X20.8691 Y-24.6181
G01 X20.7769 Y-24.5014
G01 X20.7597 Y-24.4756
G01 X20.7523 Y-24.4621
G01 X20.7477 Y-24.4507
G01 X20.7441 Y-24.4389
G01 X20.7282 Y-24.3665
G01 X20.7259 Y-24.3512
G01 X20.7253 Y-24.3388
G01 X20.7258 Y-24.3295
G01 X20.7269 Y-24.3203
G01 X20.7294 Y-24.3081
G01 X20.7321 Y-24.2992
G01 X20.7602 Y-24.2240
G01 X20.7656 Y-24.2128
G01 X20.7739 Y-24.1997
G01 X20.7838 Y-24.1878
G01 X20.7951 Y-24.1771
G01 X20.8567 Y-24.1306
G01 X20.8666 Y-24.1239
G01 X20.8743 Y-24.1196
G01 X20.8824 Y-24.1157
G01 X20.8911 Y-24.1124
G01 X20.9790 Y-24.0465
G01 X21.0449 Y-23.9586
G01 X21.0842 Y-23.8537
G01 X21.0885 Y-23.8139
G01 X21.0885 Y-21.8261
G01 X21.0842 Y-21.7863
G01 X21.0794 Y-21.7711
G01 X21.0768 Y-21.7565
G01 X21.0711 Y-21.6795
G01 X21.0707 Y-21.6702
G01 X21.0714 Y-21.6578
G01 X21.0733 Y-21.6455
G01 X21.0763 Y-21.6335
G01 X21.0819 Y-21.6189
G01 X21.0860 Y-21.6106
G01 X21.1230 Y-21.5431
G01 X21.1315 Y-21.5309
G01 X21.1414 Y-21.5198
G01 X25.1942 Y-17.4672
G01 X25.2101 Y-17.4531
G01 X25.2200 Y-17.4456
G01 X25.2333 Y-17.4377
G01 X25.2446 Y-17.4325
G01 X25.3106 Y-17.4065
G01 X25.3224 Y-17.4025
G01 X25.3314 Y-17.4003
G01 X25.3437 Y-17.3984
G01 X25.3561 Y-17.3977
G01 X25.3685 Y-17.3983
G01 X25.3808 Y-17.4001
G01 X25.4535 Y-17.4145
G01 X25.4684 Y-17.4188
G01 X25.4826 Y-17.4250
G01 X25.4960 Y-17.4328
G01 X25.5083 Y-17.4423
G01 X25.5684 Y-17.5001
G01 X25.5783 Y-17.5120
G01 X25.5851 Y-17.5224
G01 X25.5909 Y-17.5334
G01 X25.5965 Y-17.5479
G01 X25.5989 Y-17.5568
G01 X25.6160 Y-17.6288
G01 X25.6182 Y-17.6435
G01 X25.6187 Y-17.6554
G01 X25.6177 Y-17.6767
G01 X25.6155 Y-17.6999
G01 X25.6152 Y-17.7265
G01 X25.6123 Y-17.7802
G01 X25.6136 Y-17.7904
G01 X25.6151 Y-17.8101
G01 X25.6155 Y-17.8199
G01 X25.6155 Y-32.5594
G01 X25.6151 Y-32.5694
G01 X25.6119 Y-32.5995
G01 X25.6100 Y-32.6116
G01 X25.6078 Y-32.6206
G01 X25.6038 Y-32.6322
G01 X25.5988 Y-32.6433
G01 X25.5603 Y-32.7135
G01 X25.5519 Y-32.7257
G01 X25.5441 Y-32.7347
G01 X23.5969 Y-34.6820
G01 X23.5895 Y-34.6888
G01 X23.5659 Y-34.7078
G01 X23.5586 Y-34.7133
G01 X23.5454 Y-34.7213
G01 X23.5343 Y-34.7264
G01 X23.5227 Y-34.7304
G01 X23.4517 Y-34.7512
G01 X23.4372 Y-34.7542
G01 X23.4223 Y-34.7555
G01 X21.3386 Y-34.7555
G01 X21.3272 Y-34.7550
G01 X21.3187 Y-34.7539
G01 X21.2730 Y-34.7464
G01 X21.2581 Y-34.7422
G01 X21.2438 Y-34.7363
G01 X21.2304 Y-34.7286
G01 X21.1694 Y-34.6864
G01 X21.1596 Y-34.6789
G01 X21.1505 Y-34.6704
G01 X21.1443 Y-34.6634
G01 X21.1387 Y-34.6560
G01 X21.1336 Y-34.6482
G01 X21.1291 Y-34.6401
G01 X21.1252 Y-34.6316
G01 X21.0958 Y-34.5605
G01 X21.0923 Y-34.5492
G01 X21.0899 Y-34.5375
G01 X21.0842 Y-34.4863
G01 X21.0449 Y-34.3814
G01 X20.9790 Y-34.2935
G01 X20.8911 Y-34.2276
G01 X20.7862 Y-34.1883
G01 X20.7464 Y-34.1840
G01 X18.6636 Y-34.1840
G01 X18.6238 Y-34.1883
G01 X18.5189 Y-34.2276
G01 X18.4310 Y-34.2935
G01 X18.3651 Y-34.3814
G01 X18.3258 Y-34.4863
G01 X18.3215 Y-34.5261
G01 X18.3215 Y-36.5139
G01 X18.3258 Y-36.5537
G01 X18.3651 Y-36.6586
G01 X18.4310 Y-36.7465
G01 X18.5200 Y-36.8131
G01 X18.5282 Y-36.8173
G01 X18.5425 Y-36.8257
G01 X18.5500 Y-36.8309
G01 X18.5569 Y-36.8365
G01 X18.5922 Y-36.8611
G01 X18.6039 Y-36.8708
G01 X18.6143 Y-36.8819
G01 X18.6233 Y-36.8941
G01 X18.6294 Y-36.9046
G01 X18.6640 Y-36.9803
G01 X18.6680 Y-36.9921
G01 X18.6708 Y-37.0042
G01 X18.6725 Y-37.0165
G01 X18.6728 Y-37.0289
G01 X18.6716 Y-37.0444
G01 X18.6610 Y-37.1177
G01 X18.6575 Y-37.1328
G01 X18.6521 Y-37.1474
G01 X18.6450 Y-37.1611
G01 X18.6362 Y-37.1739
G01 X18.5837 Y-37.2347
G01 X18.5725 Y-37.2455
G01 X18.5601 Y-37.2548
G01 X18.5495 Y-37.2611
G01 X18.5353 Y-37.2675
G01 X18.5265 Y-37.2704
G01 X18.4555 Y-37.2912
G01 X18.4409 Y-37.2942
G01 X18.4261 Y-37.2955
G01 X15.3706 Y-37.2955
G01 X15.3573 Y-37.2948
G01 X15.3244 Y-37.2911
G01 X15.3094 Y-37.2878
G01 X15.2950 Y-37.2827
G01 X15.2839 Y-37.2773
G01 X15.2165 Y-37.2403
G01 X15.2043 Y-37.2319
G01 X15.1931 Y-37.2220
G01 X13.0071 Y-35.0359
G01 X13.0004 Y-35.0287
G01 X12.9876 Y-35.0137
G01 X12.9813 Y-35.0056
G01 X12.9413 Y-34.9696
G01 X12.9223 Y-34.9511
G01 X12.9024 Y-34.9346
G01 X12.8618 Y-34.8981
G01 X12.8532 Y-34.8926
G01 X12.8342 Y-34.8796
G01 X12.8287 Y-34.8753
G01 X12.7779 Y-34.8494
G01 X12.7227 Y-34.8177
G01 X12.7130 Y-34.8142
G01 X12.6918 Y-34.8054
G01 X12.6855 Y-34.8023
G01 X12.6241 Y-34.7857
G01 X12.5698 Y-34.7681
G01 X12.5629 Y-34.7672
G01 X12.5403 Y-34.7630
G01 X12.5303 Y-34.7608
G01 X12.4766 Y-34.7579
G01 X12.4501 Y-34.7555
G01 X12.4235 Y-34.7552
G01 X12.3698 Y-34.7523
G01 X12.3596 Y-34.7536
G01 X12.3399 Y-34.7551
G01 X12.3301 Y-34.7555
G01 X7.7070 Y-34.7555
G01 X7.6981 Y-34.7552
G01 X7.6893 Y-34.7542
G01 X7.6805 Y-34.7526
G01 X7.6282 Y-34.7413
G01 X7.6132 Y-34.7370
G01 X7.6016 Y-34.7323
G01 X7.5906 Y-34.7264
G01 X7.5802 Y-34.7195
G01 X7.5729 Y-34.7136
G01 X7.5170 Y-34.6652
G01 X7.5106 Y-34.6590
G01 X7.5047 Y-34.6523
G01 X7.4959 Y-34.6403
G01 X7.4083 Y-34.5040
G01 X7.2433 Y-34.3159
G01 X7.0523 Y-34.1542
G01 X6.8395 Y-34.0225
G01 X6.6096 Y-33.9238
G01 X6.3677 Y-33.8600
G01 X6.1189 Y-33.8328
G01 X5.8689 Y-33.8426
G01 X5.6231 Y-33.8893
G01 X5.3868 Y-33.9718
G01 X5.1654 Y-34.0883
G01 X4.9636 Y-34.2363
G01 X4.7859 Y-34.4124
G01 X4.6362 Y-34.6129
G01 X4.5177 Y-34.8333
G01 X4.4332 Y-35.0688
G01 X4.3844 Y-35.3143
G01 X4.3724 Y-35.5642
G01 X4.3974 Y-35.8132
G01 X4.4590 Y-36.0557
G01 X4.5558 Y-36.2864
G01 X4.6856 Y-36.5004
G01 X4.8456 Y-36.6927
G01 X5.0323 Y-36.8594
G01 X5.2415 Y-36.9966
G01 X5.4688 Y-37.1013
G01 X5.7090 Y-37.1713
G01 X5.9569 Y-37.2051
G01 X6.2071 Y-37.2018
G01 X6.4541 Y-37.1616
G01 X6.6924 Y-37.0853
G01 X6.9168 Y-36.9746
G01 X7.1224 Y-36.8320
G01 X7.3047 Y-36.6605
G01 X7.4596 Y-36.4640
G01 X7.4915 Y-36.4084
G01 X7.5000 Y-36.3960
G01 X7.5078 Y-36.3869
G01 X7.5535 Y-36.3390
G01 X7.5630 Y-36.3308
G01 X7.5732 Y-36.3237
G01 X7.5842 Y-36.3175
G01 X7.5956 Y-36.3125
G01 X7.6045 Y-36.3096
G01 X7.6755 Y-36.2888
G01 X7.6842 Y-36.2868
G01 X7.6930 Y-36.2854
G01 X7.7079 Y-36.2845
G01 X11.9894 Y-36.2845
G01 X12.0027 Y-36.2852
G01 X12.0326 Y-36.2885
G01 X12.0416 Y-36.2900
G01 X12.0506 Y-36.2922
G01 X12.0593 Y-36.2951
G01 X12.0678 Y-36.2986
G01 X12.0761 Y-36.3027
G01 X12.1435 Y-36.3397
G01 X12.1557 Y-36.3481
G01 X12.1669 Y-36.3580
G01 X14.3529 Y-38.5441
G01 X14.3596 Y-38.5513
G01 X14.3724 Y-38.5663
G01 X14.3787 Y-38.5744
G01 X14.4187 Y-38.6104
G01 X14.4377 Y-38.6289
G01 X14.4576 Y-38.6454
G01 X14.4982 Y-38.6819
G01 X14.5068 Y-38.6874
G01 X14.5258 Y-38.7004
G01 X14.5313 Y-38.7047
G01 X14.5879 Y-38.7338
G01 X14.6373 Y-38.7623
G01 X14.6439 Y-38.7646
G01 X14.6652 Y-38.7733
G01 X14.6745 Y-38.7777
G01 X14.7296 Y-38.7925
G01 X14.7902 Y-38.8119
G01 X14.7971 Y-38.8128
G01 X14.8198 Y-38.8170
G01 X14.8297 Y-38.8192
G01 X14.8834 Y-38.8221
G01 X14.9099 Y-38.8245
G01 X14.9365 Y-38.8248
G01 X14.9902 Y-38.8277
G01 X15.0004 Y-38.8264
G01 X15.0201 Y-38.8249
G01 X15.0299 Y-38.8245
G01 X18.4372 Y-38.8245
G01 X18.4460 Y-38.8248
G01 X18.4548 Y-38.8258
G01 X18.5049 Y-38.8342
G01 X18.5140 Y-38.8366
G01 X18.5229 Y-38.8396
G01 X18.5343 Y-38.8447
G01 X18.5426 Y-38.8492
G01 X18.5504 Y-38.8544
G01 X18.6083 Y-38.8954
G01 X18.6177 Y-38.9028
G01 X18.6263 Y-38.9110
G01 X18.6323 Y-38.9176
G01 X18.6771 Y-38.9743
G01 X18.8397 Y-39.1223
G01 X18.8480 Y-39.1284
G01 X18.8750 Y-39.1511
G01 X18.8860 Y-39.1616
G01 X18.8956 Y-39.1733
G01 X18.9037 Y-39.1862
G01 X18.9378 Y-39.2553
G01 X18.9416 Y-39.2638
G01 X18.9464 Y-39.2785
G01 X18.9494 Y-39.2938
G01 X18.9505 Y-39.3061
G01 X18.9500 Y-39.3216
G01 X18.9415 Y-39.3952
G01 X18.9388 Y-39.4105
G01 X18.9352 Y-39.4224
G01 X18.9305 Y-39.4339
G01 X18.9247 Y-39.4449
G01 X18.9179 Y-39.4552
G01 X18.8690 Y-39.5150
G01 X18.8589 Y-39.5259
G01 X18.8523 Y-39.5319
G01 X18.8452 Y-39.5373
G01 X18.8141 Y-39.5586
G01 X18.6554 Y-39.7103
G01 X18.5235 Y-39.8859
G01 X18.4221 Y-40.0807
G01 X18.3763 Y-40.2210
G01 X18.6499 Y-40.2210
G01 X18.6598 Y-40.1934
G01 X18.6632 Y-40.1848
G01 X18.7045 Y-40.0976
G01 X18.7087 Y-40.0894
G01 X18.7616 Y-40.0014
G01 X18.8208 Y-39.9213
G01 X18.8266 Y-39.9141
G01 X18.8956 Y-39.8381
G01 X18.9739 Y-39.7671
G01 X19.0589 Y-39.7041
G01 X19.1442 Y-39.6528
G01 X19.1523 Y-39.6483
G01 X19.2452 Y-39.6045
G01 X19.3389 Y-39.5708
G01 X19.3506 Y-39.5673
G01 X19.4473 Y-39.5432
G01 X19.5458 Y-39.5284
G01 X19.5549 Y-39.5274
G01 X19.6544 Y-39.5225
G01 X19.7525 Y-39.5225
G01 X19.8581 Y-39.5277
G01 X19.9567 Y-39.5422
G01 X19.9687 Y-39.5445
G01 X20.0653 Y-39.5689
G01 X20.1648 Y-39.6045
G01 X20.2549 Y-39.6470
G01 X20.2658 Y-39.6528
G01 X20.3459 Y-39.7008
G01 X20.3537 Y-39.7058
G01 X20.4361 Y-39.7671
G01 X20.5100 Y-39.8339
G01 X20.5186 Y-39.8425
G01 X20.5814 Y-39.9118
G01 X20.5873 Y-39.9188
G01 X20.6484 Y-40.0014
G01 X20.7013 Y-40.0894
G01 X20.7055 Y-40.0976
G01 X20.7468 Y-40.1848
G01 X20.7502 Y-40.1934
G01 X20.7601 Y-40.2210
G01 X21.0351 Y-40.2210
G01 X20.9748 Y-40.0506
G01 X20.8687 Y-39.8584
G01 X20.7326 Y-39.6861
G01 X20.5702 Y-39.5383
G01 X20.5620 Y-39.5322
G01 X20.5327 Y-39.5075
G01 X20.5261 Y-39.5012
G01 X20.5181 Y-39.4921
G01 X20.5110 Y-39.4822
G01 X20.5049 Y-39.4718
G01 X20.4722 Y-39.4053
G01 X20.4685 Y-39.3968
G01 X20.4644 Y-39.3851
G01 X20.4616 Y-39.3730
G01 X20.4599 Y-39.3607
G01 X20.4595 Y-39.3483
G01 X20.4603 Y-39.3359
G01 X20.4685 Y-39.2654
G01 X20.4705 Y-39.2531
G01 X20.4738 Y-39.2411
G01 X20.4782 Y-39.2295
G01 X20.4837 Y-39.2184
G01 X20.4922 Y-39.2054
G01 X20.5410 Y-39.1456
G01 X20.5511 Y-39.1347
G01 X20.5577 Y-39.1287
G01 X20.5648 Y-39.1233
G01 X20.5962 Y-39.1018
G01 X20.7550 Y-38.9500
G01 X20.8869 Y-38.7744
G01 X20.9883 Y-38.5795
G01 X21.0566 Y-38.3707
G01 X21.0898 Y-38.1535
G01 X21.0886 Y-38.0561
G01 X21.0871 Y-37.9338
G01 X21.0486 Y-37.7176
G01 X20.9753 Y-37.5105
G01 X20.8691 Y-37.3181
G01 X20.7769 Y-37.2014
G01 X20.7597 Y-37.1756
G01 X20.7523 Y-37.1621
G01 X20.7477 Y-37.1507
G01 X20.7441 Y-37.1389
G01 X20.7282 Y-37.0665
G01 X20.7259 Y-37.0512
G01 X20.7254 Y-37.0357
G01 X20.7269 Y-37.0203
G01 X20.7287 Y-37.0111
G01 X20.7311 Y-37.0022
G01 X20.7579 Y-36.9297
G01 X20.7627 Y-36.9183
G01 X20.7671 Y-36.9101
G01 X20.7739 Y-36.8997
G01 X20.7797 Y-36.8924
G01 X20.7882 Y-36.8833
G01 X20.7975 Y-36.8752
G01 X20.8591 Y-36.8289
G01 X20.8666 Y-36.8239
G01 X20.8743 Y-36.8196
G01 X20.8824 Y-36.8157
G01 X20.8911 Y-36.8124
G01 X20.9790 Y-36.7465
G01 X21.0449 Y-36.6586
G01 X21.0842 Y-36.5537
G01 X21.0891 Y-36.5084
G01 X21.0908 Y-36.4971
G01 X21.0928 Y-36.4888
G01 X21.1053 Y-36.4441
G01 X21.1097 Y-36.4325
G01 X21.1153 Y-36.4215
G01 X21.1219 Y-36.4110
G01 X21.1295 Y-36.4013
G01 X21.1802 Y-36.3431
G01 X21.1869 Y-36.3366
G01 X21.1941 Y-36.3306
G01 X21.2069 Y-36.3219
G01 X21.2207 Y-36.3149
G01 X21.2353 Y-36.3096
G01 X21.3063 Y-36.2888
G01 X21.3179 Y-36.2862
G01 X21.3297 Y-36.2848
G01 X21.3386 Y-36.2845
G01 X23.7601 Y-36.2845
G01 X23.7699 Y-36.2849
G01 X23.7896 Y-36.2864
G01 X23.7998 Y-36.2877
G01 X23.8535 Y-36.2848
G01 X23.8801 Y-36.2845
G01 X23.9066 Y-36.2821
G01 X23.9603 Y-36.2792
G01 X23.9703 Y-36.2770
G01 X23.9929 Y-36.2728
G01 X23.9998 Y-36.2719
G01 X24.0541 Y-36.2543
G01 X24.1155 Y-36.2377
G01 X24.1218 Y-36.2346
G01 X24.1430 Y-36.2258
G01 X24.1527 Y-36.2223
G01 X24.2079 Y-36.1906
G01 X24.2587 Y-36.1647
G01 X24.2642 Y-36.1604
G01 X24.2832 Y-36.1474
G01 X24.2918 Y-36.1419
G01 X24.3318 Y-36.1059
G01 X24.3523 Y-36.0889
G01 X24.3713 Y-36.0704
G01 X24.4113 Y-36.0344
G01 X24.4176 Y-36.0263
G01 X24.4304 Y-36.0113
G01 X24.4371 Y-36.0041
G01 X26.8641 Y-33.5771
G01 X26.8713 Y-33.5704
G01 X26.8863 Y-33.5576
G01 X26.8944 Y-33.5513
G01 X26.9304 Y-33.5113
G01 X26.9489 Y-33.4923
G01 X26.9654 Y-33.4724
G01 X27.0019 Y-33.4318
G01 X27.0074 Y-33.4232
G01 X27.0204 Y-33.4042
G01 X27.0247 Y-33.3987
G01 X27.0538 Y-33.3421
G01 X27.0823 Y-33.2927
G01 X27.0846 Y-33.2861
G01 X27.0933 Y-33.2648
G01 X27.0977 Y-33.2555
G01 X27.1125 Y-33.2004
G01 X27.1319 Y-33.1398
G01 X27.1328 Y-33.1329
G01 X27.1370 Y-33.1102
G01 X27.1392 Y-33.1003
G01 X27.1421 Y-33.0466
G01 X27.1445 Y-33.0201
G01 X27.1448 Y-32.9935
G01 X27.1477 Y-32.9398
G01 X27.1464 Y-32.9296
G01 X27.1449 Y-32.9099
G01 X27.1445 Y-32.9001
G01 X27.1445 Y-18.1606
G01 X27.1452 Y-18.1473
G01 X27.1489 Y-18.1144
G01 X27.1514 Y-18.1024
G01 X27.1551 Y-18.0907
G01 X27.1586 Y-18.0822
G01 X27.1627 Y-18.0739
G01 X27.1967 Y-18.0116
G01 X27.2046 Y-17.9990
G01 X27.2100 Y-17.9920
G01 X27.2180 Y-17.9831
G01 X32.3951 Y-12.8060
G01 X32.4051 Y-12.7971
G01 X32.4285 Y-12.7783
G01 X32.4360 Y-12.7730
G01 X32.4439 Y-12.7682
G01 X32.4521 Y-12.7641
G01 X32.4663 Y-12.7585
G01 X32.5431 Y-12.7360
G01 X32.5578 Y-12.7334
G01 X32.5726 Y-12.7325
G01 X41.0373 Y-12.7327
G01 X41.0466 Y-12.7335
G01 X41.0558 Y-12.7350
G01 X41.1162 Y-12.7487
G01 X41.1278 Y-12.7523
G01 X41.1417 Y-12.7582
G01 X41.1523 Y-12.7642
G01 X41.1646 Y-12.7731
G01 X41.2220 Y-12.8245
G01 X41.2324 Y-12.8351
G01 X41.2380 Y-12.8420
G01 X41.2432 Y-12.8493
G01 X41.3289 Y-12.9883
G01 X41.4333 Y-13.0929
G01 X41.5589 Y-13.1706
G01 X41.6998 Y-13.2176
G01 X41.7855 Y-13.2265
G01 X42.6735 Y-13.2265
G01 X42.7579 Y-13.2179
G01 X42.8990 Y-13.1711
G01 X43.0247 Y-13.0936
G01 X43.1293 Y-12.9892
G01 X43.2070 Y-12.8636
G01 X43.2541 Y-12.7226
G01 X43.2629 Y-12.6370
G01 X43.2629 Y-11.2990
G01 X43.2543 Y-11.2145
G01 X43.2075 Y-11.0735
G01 X43.1300 Y-10.9477
G01 X43.0577 Y-10.8753
G01 X43.0497 Y-10.8665
G01 X43.0410 Y-10.8545
G01 X43.0120 Y-10.8094
G01 X43.0058 Y-10.7986
G01 X43.0019 Y-10.7901
G01 X42.9977 Y-10.7783
G01 X42.9953 Y-10.7693
G01 X42.9936 Y-10.7600
G01 X42.9926 Y-10.7507
G01 X42.9873 Y-10.6737
G01 X42.9876 Y-10.6613
G01 X42.9892 Y-10.6490
G01 X42.9920 Y-10.6369
G01 X42.9960 Y-10.6251
G01 X43.0026 Y-10.6111
G01 X43.0367 Y-10.5488
G01 X43.0412 Y-10.5411
G01 X43.0481 Y-10.5315
G01 X43.0559 Y-10.5225
G01 X43.1293 Y-10.4492
G01 X43.2070 Y-10.3236
G01 X43.2541 Y-10.1826
G01 X43.2629 Y-10.0970
G01 X43.2629 Y-8.7590
G01 X43.2543 Y-8.6745
G01 X43.2075 Y-8.5335
G01 X43.1300 Y-8.4077
G01 X43.0256 Y-8.3032
G01 X42.9000 Y-8.2254
G01 X42.7591 Y-8.1784
G01 X42.6734 Y-8.1695
G01 X41.7854 Y-8.1695
G01 X41.7009 Y-8.1782
G01 X41.5599 Y-8.2250
G01 X41.4341 Y-8.3025
G01 X41.3296 Y-8.4068
G01 X41.2443 Y-8.5446
G01 X41.2392 Y-8.5523
G01 X41.2293 Y-8.5642
G01 X41.1838 Y-8.6104
G01 X41.1745 Y-8.6181
G01 X41.1646 Y-8.6250
G01 X41.1540 Y-8.6308
G01 X41.1429 Y-8.6356
G01 X41.1342 Y-8.6385
G01 X41.0633 Y-8.6593
G01 X41.0516 Y-8.6618
G01 X41.0398 Y-8.6632
G01 X41.0309 Y-8.6635
G01 X32.2319 Y-8.6635
G01 X32.2221 Y-8.6631
G01 X32.2024 Y-8.6616
G01 X32.1922 Y-8.6604
G01 X32.1385 Y-8.6632
G01 X32.1119 Y-8.6635
G01 X32.0854 Y-8.6660
G01 X32.0317 Y-8.6688
G01 X32.0217 Y-8.6711
G01 X31.9990 Y-8.6752
G01 X31.9922 Y-8.6761
G01 X31.9379 Y-8.6937
G01 X31.8765 Y-8.7104
G01 X31.8702 Y-8.7134
G01 X31.8489 Y-8.7222
G01 X31.8393 Y-8.7258
G01 X31.7841 Y-8.7574
G01 X31.7333 Y-8.7833
G01 X31.7278 Y-8.7876
G01 X31.7088 Y-8.8007
G01 X31.7001 Y-8.8061
G01 X31.6602 Y-8.8421
G01 X31.6397 Y-8.8591
G01 X31.6207 Y-8.8777
G01 X31.5807 Y-8.9137
G01 X31.5744 Y-8.9217
G01 X31.5615 Y-8.9368
G01 X31.5549 Y-8.9440
G01 X19.2209 Y-21.2779
G01 X19.2137 Y-21.2846
G01 X19.1987 Y-21.2974
G01 X19.1906 Y-21.3037
G01 X19.1546 Y-21.3437
G01 X19.1361 Y-21.3627
G01 X19.1196 Y-21.3826
G01 X19.1031 Y-21.4010
G01 X19.0961 Y-21.4081
G01 X19.0609 Y-21.4381
G01 X19.0507 Y-21.4451
G01 X19.0372 Y-21.4524
G01 X19.0287 Y-21.4560
G01 X19.0199 Y-21.4589
G01 X18.9518 Y-21.4789
G01 X18.9373 Y-21.4823
G01 X18.9255 Y-21.4837
G01 X18.9166 Y-21.4840
G01 X18.6636 Y-21.4840
G01 X18.6238 Y-21.4883
G01 X18.5189 Y-21.5276
G01 X18.4310 Y-21.5935
G01 X18.3651 Y-21.6814
G01 X18.3258 Y-21.7863
G01 X18.3215 Y-21.8261
G01 X18.3215 Y-23.8139
G01 X18.3258 Y-23.8537
G01 X18.3651 Y-23.9586
G01 X18.4310 Y-24.0465
G01 X18.5200 Y-24.1131
G01 X18.5282 Y-24.1173
G01 X18.5425 Y-24.1257
G01 X18.5500 Y-24.1309
G01 X18.5569 Y-24.1365
G01 X18.5922 Y-24.1611
G01 X18.6017 Y-24.1688
G01 X18.6103 Y-24.1773
G01 X18.6199 Y-24.1891
G01 X18.6249 Y-24.1967
G01 X18.6294 Y-24.2046
G01 X18.6628 Y-24.2775
G01 X18.6680 Y-24.2921
G01 X18.6708 Y-24.3042
G01 X18.6725 Y-24.3165
G01 X18.6728 Y-24.3289
G01 X18.6720 Y-24.3413
G01 X18.6604 Y-24.4208
G01 X18.6565 Y-24.4358
G01 X18.6508 Y-24.4502
G01 X18.6450 Y-24.4611
G01 X18.6362 Y-24.4739
G01 X18.5857 Y-24.5324
G01 X18.5794 Y-24.5392
G01 X18.5677 Y-24.5494
G01 X18.5575 Y-24.5565
G01 X18.5467 Y-24.5625
G01 X18.5353 Y-24.5675
G01 X18.5265 Y-24.5704
G01 X18.4526 Y-24.5920
G01 X18.4380 Y-24.5946
G01 X18.4231 Y-24.5955
G01 X15.3706 Y-24.5955
G01 X15.3606 Y-24.5951
G01 X15.3274 Y-24.5915
G01 X15.3184 Y-24.5900
G01 X15.3094 Y-24.5878
G01 X15.2978 Y-24.5838
G01 X15.2867 Y-24.5788
G01 X15.2190 Y-24.5418
G01 X15.2115 Y-24.5371
G01 X15.2043 Y-24.5319
G01 X15.1931 Y-24.5220
G01 X13.0071 Y-22.3359
G01 X13.0004 Y-22.3287
G01 X12.9876 Y-22.3137
G01 X12.9813 Y-22.3056
G01 X12.9413 Y-22.2696
G01 X12.9223 Y-22.2511
G01 X12.9024 Y-22.2346
G01 X12.8618 Y-22.1981
G01 X12.8532 Y-22.1926
G01 X12.8342 Y-22.1796
G01 X12.8287 Y-22.1753
G01 X12.7779 Y-22.1494
G01 X12.7227 Y-22.1177
G01 X12.7130 Y-22.1142
G01 X12.6918 Y-22.1054
G01 X12.6855 Y-22.1023
G01 X12.6241 Y-22.0857
G01 X12.5698 Y-22.0681
G01 X12.5629 Y-22.0672
G01 X12.5403 Y-22.0630
G01 X12.5303 Y-22.0608
G01 X12.4766 Y-22.0579
G01 X12.4501 Y-22.0555
G01 X12.4235 Y-22.0552
G01 X12.3698 Y-22.0523
G01 X12.3596 Y-22.0536
G01 X12.3399 Y-22.0551
G01 X12.3301 Y-22.0555
G01 X7.7070 Y-22.0555
G01 X7.6981 Y-22.0552
G01 X7.6893 Y-22.0542
G01 X7.6805 Y-22.0526
G01 X7.6221 Y-22.0398
G01 X7.6073 Y-22.0348
G01 X7.5960 Y-22.0295
G01 X7.5853 Y-22.0231
G01 X7.5753 Y-22.0156
G01 X7.5148 Y-21.9632
G01 X7.5066 Y-21.9546
G01 X7.4976 Y-21.9428
G01 X7.4083 Y-21.8040
G01 X7.2433 Y-21.6159
G01 X7.0523 Y-21.4542
G01 X6.8395 Y-21.3225
G01 X6.6096 Y-21.2238
G01 X6.3677 Y-21.1600
G01 X6.1189 Y-21.1328
G01 X5.8689 Y-21.1426
G01 X5.6231 Y-21.1893
G01 X5.3868 Y-21.2718
G01 X5.1654 Y-21.3883
G01 X4.9636 Y-21.5363
G01 X4.7859 Y-21.7124
G01 X4.7083 Y-21.8163
G01 X4.6362 Y-21.9129
G01 X4.5177 Y-22.1333
G01 X4.4332 Y-22.3688
G01 X4.3844 Y-22.6143
G01 X4.3724 Y-22.8642
G00 Z2.0000
G00 X4.6426 Y-35.3742
G01 F60.00
G01 Z-0.0500
G01 F100.00
G01 X4.6414 Y-35.3864
G01 X4.6350 Y-35.5200
G01 X4.6419 Y-35.6597
G01 X4.6624 Y-35.7980
G01 X4.6964 Y-35.9337
G01 X4.7435 Y-36.0653
G01 X4.8033 Y-36.1917
G01 X4.8752 Y-36.3117
G01 X4.9585 Y-36.4240
G01 X5.0524 Y-36.5276
G01 X5.1560 Y-36.6215
G01 X5.2683 Y-36.7048
G01 X5.3883 Y-36.7767
G01 X5.5147 Y-36.8365
G01 X5.6463 Y-36.8836
G01 X5.7820 Y-36.9176
G01 X5.9203 Y-36.9381
G01 X6.0600 Y-36.9450
G01 X6.1936 Y-36.9386
G01 X6.2058 Y-36.9374
G01 X6.3320 Y-36.9187
G01 X6.3440 Y-36.9163
G01 X6.4737 Y-36.8836
G01 X6.6053 Y-36.8365
G01 X6.7317 Y-36.7767
G01 X6.8491 Y-36.7065
G01 X6.8567 Y-36.7013
G01 X6.9640 Y-36.6215
G01 X7.0632 Y-36.5319
G01 X7.0719 Y-36.5232
G01 X7.1575 Y-36.4287
G01 X7.1635 Y-36.4216
G01 X7.2448 Y-36.3117
G01 X7.3153 Y-36.1944
G01 X7.3195 Y-36.1863
G01 X7.3753 Y-36.0681
G01 X7.3787 Y-36.0596
G01 X7.3907 Y-36.0262
G01 X12.2003 Y-36.0262
G01 X14.5943 Y-38.4201
G01 X14.6289 Y-38.4513
G01 X14.6638 Y-38.4773
G01 X14.6740 Y-38.4842
G01 X14.7114 Y-38.5064
G01 X14.7563 Y-38.5277
G01 X14.7972 Y-38.5425
G01 X14.8090 Y-38.5460
G01 X14.8453 Y-38.5551
G01 X14.8543 Y-38.5570
G01 X14.9004 Y-38.5638
G01 X14.9500 Y-38.5662
G01 X18.7063 Y-38.5662
G01 X18.7583 Y-38.6534
G01 X18.7651 Y-38.6636
G01 X18.8246 Y-38.7436
G01 X18.8956 Y-38.8219
G01 X18.9739 Y-38.8929
G01 X19.0539 Y-38.9524
G01 X19.0641 Y-38.9592
G01 X19.1496 Y-39.0103
G01 X19.2395 Y-39.0530
G01 X19.2509 Y-39.0577
G01 X19.3447 Y-39.0911
G01 X19.4473 Y-39.1168
G01 X19.5458 Y-39.1316
G01 X19.5549 Y-39.1326
G01 X19.6544 Y-39.1375
G01 X19.7586 Y-39.1373
G01 X19.8581 Y-39.1323
G01 X19.9627 Y-39.1168
G01 X20.0653 Y-39.0911
G01 X20.1591 Y-39.0577
G01 X20.1705 Y-39.0530
G01 X20.2549 Y-39.0130
G01 X20.2658 Y-39.0072
G01 X20.3511 Y-38.9559
G01 X20.4361 Y-38.8929
G01 X20.5144 Y-38.8219
G01 X20.5854 Y-38.7436
G01 X20.6484 Y-38.6586
G01 X20.6997 Y-38.5733
G01 X20.7055 Y-38.5624
G01 X20.7455 Y-38.4780
G01 X20.7502 Y-38.4666
G01 X20.7836 Y-38.3728
G01 X20.8080 Y-38.2762
G01 X20.8099 Y-38.2672
G01 X20.8248 Y-38.1656
G01 X20.8300 Y-38.0600
G01 X20.8248 Y-37.9544
G01 X20.8093 Y-37.8498
G01 X20.7836 Y-37.7472
G01 X20.7480 Y-37.6477
G01 X20.7028 Y-37.5521
G01 X20.6517 Y-37.4666
G01 X20.6449 Y-37.4564
G01 X20.5854 Y-37.3764
G01 X20.5186 Y-37.3025
G01 X20.5100 Y-37.2939
G01 X20.4361 Y-37.2271
G01 X20.3561 Y-37.1676
G01 X20.3459 Y-37.1608
G01 X20.2658 Y-37.1128
G01 X20.2549 Y-37.1070
G01 X20.1648 Y-37.0645
G01 X20.0653 Y-37.0289
G01 X19.9627 Y-37.0032
G01 X19.8612 Y-36.9880
G01 X19.8520 Y-36.9872
G01 X19.7556 Y-36.9825
G01 X19.6544 Y-36.9825
G01 X19.5519 Y-36.9877
G01 X19.4503 Y-37.0026
G01 X19.4413 Y-37.0045
G01 X19.3506 Y-37.0273
G01 X19.3389 Y-37.0308
G01 X19.2452 Y-37.0645
G01 X19.1523 Y-37.1083
G01 X19.1442 Y-37.1128
G01 X19.0641 Y-37.1608
G01 X19.0539 Y-37.1676
G01 X18.9739 Y-37.2271
G01 X18.8956 Y-37.2981
G01 X18.8246 Y-37.3764
G01 X18.7651 Y-37.4564
G01 X18.7583 Y-37.4666
G01 X18.7063 Y-37.5538
G01 X15.1597 Y-37.5538
G01 X12.7657 Y-35.1599
G01 X12.7311 Y-35.1287
G01 X12.6962 Y-35.1027
G01 X12.6860 Y-35.0958
G01 X12.6486 Y-35.0736
G01 X12.6037 Y-35.0523
G01 X12.5628 Y-35.0375
G01 X12.5510 Y-35.0340
G01 X12.5147 Y-35.0249
G01 X12.5057 Y-35.0230
G01 X12.4596 Y-35.0162
G01 X12.4100 Y-35.0138
G01 X7.3907 Y-35.0138
G01 X7.3787 Y-34.9804
G01 X7.3753 Y-34.9719
G01 X7.3195 Y-34.8537
G01 X7.3153 Y-34.8456
G01 X7.2448 Y-34.7283
G01 X7.1635 Y-34.6184
G01 X7.1575 Y-34.6113
G01 X7.0719 Y-34.5168
G01 X7.0632 Y-34.5081
G01 X6.9640 Y-34.4185
G01 X6.8542 Y-34.3369
G01 X6.8465 Y-34.3319
G01 X6.7371 Y-34.2663
G01 X6.7263 Y-34.2605
G01 X6.6053 Y-34.2035
G01 X6.4737 Y-34.1564
G01 X6.3380 Y-34.1224
G01 X6.2058 Y-34.1026
G01 X6.1936 Y-34.1014
G01 X6.0661 Y-34.0952
G01 X6.0539 Y-34.0952
G01 X5.9203 Y-34.1019
G01 X5.7820 Y-34.1224
G01 X5.6463 Y-34.1564
G01 X5.5147 Y-34.2035
G01 X5.3883 Y-34.2633
G01 X5.2683 Y-34.3352
G01 X5.1560 Y-34.4185
G01 X5.0568 Y-34.5081
G01 X5.0481 Y-34.5168
G01 X4.9585 Y-34.6160
G01 X4.8787 Y-34.7233
G01 X4.8719 Y-34.7335
G01 X4.8063 Y-34.8429
G01 X4.8005 Y-34.8537
G01 X4.7435 Y-34.9747
G01 X4.6964 Y-35.1063
G01 X4.6624 Y-35.2420
G01 X4.6426 Y-35.3742
G00 Z2.0000
G00 X18.7050 Y-34.4425
G01 F60.00
G01 Z-0.0500
G01 F100.00
G01 X18.6927 Y-34.4431
G01 X18.6806 Y-34.4449
G01 X18.6687 Y-34.4479
G01 X18.6572 Y-34.4520
G01 X18.6461 Y-34.4573
G01 X18.6356 Y-34.4636
G01 X18.6281 Y-34.4690
G01 X18.6188 Y-34.4770
G01 X18.6103 Y-34.4859
G01 X18.6028 Y-34.4955
G01 X18.5962 Y-34.5059
G01 X18.5907 Y-34.5168
G01 X18.5873 Y-34.5254
G01 X18.5837 Y-34.5371
G01 X18.5814 Y-34.5492
G01 X18.5802 Y-34.5614
G01 X18.5800 Y-36.4756
G01 X18.5809 Y-36.4878
G01 X18.5824 Y-36.4969
G01 X18.5854 Y-36.5088
G01 X18.5895 Y-36.5203
G01 X18.5948 Y-36.5314
G01 X18.6011 Y-36.5419
G01 X18.6084 Y-36.5518
G01 X18.6145 Y-36.5587
G01 X18.6234 Y-36.5672
G01 X18.6330 Y-36.5747
G01 X18.6434 Y-36.5813
G01 X18.6543 Y-36.5868
G01 X18.6658 Y-36.5912
G01 X18.6776 Y-36.5945
G01 X18.6897 Y-36.5966
G01 X18.7019 Y-36.5975
G01 X20.7050 Y-36.5975
G01 X20.7142 Y-36.5972
G01 X20.7233 Y-36.5961
G01 X20.7324 Y-36.5945
G01 X20.7413 Y-36.5921
G01 X20.7500 Y-36.5891
G01 X20.7584 Y-36.5855
G01 X20.7666 Y-36.5813
G01 X20.7744 Y-36.5764
G01 X20.7843 Y-36.5691
G01 X20.7912 Y-36.5630
G01 X20.7976 Y-36.5564
G01 X20.8054 Y-36.5470
G01 X20.8106 Y-36.5394
G01 X20.8152 Y-36.5314
G01 X20.8193 Y-36.5232
G01 X20.8227 Y-36.5146
G01 X20.8255 Y-36.5058
G01 X20.8276 Y-36.4969
G01 X20.8294 Y-36.4848
G01 X20.8300 Y-36.4725
G01 X20.8300 Y-36.0262
G01 X23.8431 Y-36.0262
G01 X23.8835 Y-36.0242
G01 X23.8957 Y-36.0230
G01 X23.9388 Y-36.0165
G01 X23.9810 Y-36.0060
G01 X23.9928 Y-36.0025
G01 X24.0337 Y-35.9877
G01 X24.0786 Y-35.9664
G01 X24.1212 Y-35.9409
G01 X24.1563 Y-35.9151
G01 X24.1658 Y-35.9073
G01 X24.1979 Y-35.8779
G01 X26.7379 Y-33.3379
G01 X26.7713 Y-33.3011
G01 X26.7973 Y-33.2662
G01 X26.8026 Y-33.2587
G01 X26.8264 Y-33.2186
G01 X26.8452 Y-33.1793
G01 X26.8499 Y-33.1680
G01 X26.8644 Y-33.1269
G01 X26.8751 Y-33.0847
G01 X26.8775 Y-33.0727
G01 X26.8838 Y-33.0296
G01 X26.8862 Y-32.9800
G01 X26.8862 Y-17.9497
G01 X32.3617 Y-12.4742
G01 X41.4544 Y-12.4742
G01 X41.4545 Y-12.5961
G01 X41.4560 Y-12.6267
G01 X41.4570 Y-12.6359
G01 X41.4616 Y-12.6662
G01 X41.4706 Y-12.7019
G01 X41.4830 Y-12.7365
G01 X41.4973 Y-12.7671
G01 X41.5017 Y-12.7751
G01 X41.5176 Y-12.8014
G01 X41.5358 Y-12.8261
G01 X41.5436 Y-12.8356
G01 X41.5621 Y-12.8560
G01 X41.5687 Y-12.8624
G01 X41.5915 Y-12.8829
G01 X41.6211 Y-12.9048
G01 X41.6527 Y-12.9237
G01 X41.6859 Y-12.9395
G01 X41.7206 Y-12.9519
G01 X41.7563 Y-12.9608
G01 X41.7927 Y-12.9662
G01 X41.8264 Y-12.9680
G01 X42.6294 Y-12.9680
G01 X42.6601 Y-12.9667
G01 X42.6692 Y-12.9659
G01 X42.7026 Y-12.9608
G01 X42.7383 Y-12.9519
G01 X42.7729 Y-12.9395
G01 X42.8007 Y-12.9265
G01 X42.8089 Y-12.9223
G01 X42.8326 Y-12.9081
G01 X42.8428 Y-12.9013
G01 X42.8673 Y-12.8829
G01 X42.8946 Y-12.8582
G01 X42.9193 Y-12.8309
G01 X42.9377 Y-12.8064
G01 X42.9445 Y-12.7962
G01 X42.9587 Y-12.7725
G01 X42.9629 Y-12.7643
G01 X42.9759 Y-12.7365
G01 X42.9883 Y-12.7019
G01 X42.9972 Y-12.6662
G01 X43.0023 Y-12.6328
G01 X43.0031 Y-12.6237
G01 X43.0044 Y-12.5930
G01 X43.0044 Y-11.3430
G01 X43.0029 Y-11.3093
G01 X43.0019 Y-11.3002
G01 X42.9972 Y-11.2699
G01 X42.9899 Y-11.2401
G01 X42.9864 Y-11.2283
G01 X42.9770 Y-11.2024
G01 X42.9734 Y-11.1939
G01 X42.9602 Y-11.1662
G01 X42.9412 Y-11.1347
G01 X42.9193 Y-11.1051
G01 X42.8968 Y-11.0801
G01 X42.8902 Y-11.0736
G01 X42.8673 Y-11.0531
G01 X42.8428 Y-11.0348
G01 X42.8326 Y-11.0279
G01 X42.8089 Y-11.0138
G01 X42.8007 Y-11.0095
G01 X42.7729 Y-10.9966
G01 X42.7383 Y-10.9842
G01 X42.7026 Y-10.9752
G01 X42.6723 Y-10.9706
G01 X42.6631 Y-10.9696
G01 X42.6294 Y-10.9680
G01 X41.8264 Y-10.9681
G01 X41.7957 Y-10.9696
G01 X41.7866 Y-10.9706
G01 X41.7563 Y-10.9752
G01 X41.7235 Y-10.9833
G01 X41.7148 Y-10.9861
G01 X41.6859 Y-10.9966
G01 X41.6527 Y-11.0123
G01 X41.6211 Y-11.0312
G01 X41.5915 Y-11.0531
G01 X41.5643 Y-11.0779
G01 X41.5396 Y-11.1051
G01 X41.5176 Y-11.1347
G01 X41.5002 Y-11.1636
G01 X41.4960 Y-11.1717
G01 X41.4830 Y-11.1995
G01 X41.4725 Y-11.2283
G01 X41.4697 Y-11.2371
G01 X41.4630 Y-11.2639
G01 X41.4606 Y-11.2759
G01 X41.4562 Y-11.3063
G01 X41.4545 Y-11.3400
G01 X41.4544 Y-11.4618
G01 X32.1489 Y-11.4619
G01 X32.1024 Y-11.4643
G01 X32.0532 Y-11.4716
G01 X32.0050 Y-11.4836
G01 X31.9583 Y-11.5004
G01 X31.9134 Y-11.5216
G01 X31.8708 Y-11.5471
G01 X31.8309 Y-11.5767
G01 X31.7962 Y-11.6079
G01 X26.0221 Y-17.3821
G01 X25.9927 Y-17.4142
G01 X25.9849 Y-17.4237
G01 X25.9591 Y-17.4588
G01 X25.9366 Y-17.4960
G01 X25.9308 Y-17.5069
G01 X25.9123 Y-17.5463
G01 X25.8975 Y-17.5872
G01 X25.8948 Y-17.5960
G01 X25.8835 Y-17.6412
G01 X25.8770 Y-17.6843
G01 X25.8758 Y-17.6965
G01 X25.8738 Y-17.7400
G01 X25.8738 Y-32.7703
G01 X23.6303 Y-35.0138
G01 X20.8300 Y-35.0138
G01 X20.8300 Y-34.5675
G01 X20.8297 Y-34.5583
G01 X20.8282 Y-34.5461
G01 X20.8263 Y-34.5371
G01 X20.8237 Y-34.5283
G01 X20.8205 Y-34.5197
G01 X20.8167 Y-34.5113
G01 X20.8089 Y-34.4981
G01 X20.8035 Y-34.4906
G01 X20.7976 Y-34.4836
G01 X20.7912 Y-34.4770
G01 X20.7843 Y-34.4709
G01 X20.7719 Y-34.4619
G01 X20.7639 Y-34.4573
G01 X20.7557 Y-34.4532
G01 X20.7471 Y-34.4498
G01 X20.7383 Y-34.4470
G01 X20.7294 Y-34.4449
G01 X20.7203 Y-34.4434
G01 X20.7050 Y-34.4425
G01 X18.7050 Y-34.4425
G00 Z2.0000
G00 X21.0821 Y-34.8388
G01 F60.00
G01 Z-0.0500
G01 F100.00
G01 X21.0577 Y-34.8215
G01 X21.0405 Y-34.8072
G01 X21.0245 Y-34.7917
G01 X21.0144 Y-34.7807
G01 X21.0050 Y-34.7694
G01 X21.0050 Y-34.8388
G01 X21.0821 Y-34.8388
G00 Z2.0000
G00 X21.0050 Y-36.2778
G01 F60.00
G01 Z-0.0500
G01 F100.00
G01 X21.0487 Y-36.2275
G01 X21.0644 Y-36.2115
G01 X21.0759 Y-36.2012
G01 X21.0050 Y-36.2012
G01 X21.0050 Y-36.2778
G00 Z2.0000
G00 X18.8384 Y-37.1135
G01 F60.00
G01 Z-0.0500
G01 F100.00
G01 X18.8573 Y-37.0965
G01 X18.8745 Y-37.0827
G01 X18.9496 Y-37.0271
G01 X18.9616 Y-37.0186
G01 X18.9741 Y-37.0107
G01 X19.0543 Y-36.9627
G01 X19.0671 Y-36.9554
G01 X19.0802 Y-36.9488
G01 X19.1647 Y-36.9088
G01 X19.1850 Y-36.9001
G01 X19.2799 Y-36.8661
G01 X19.2939 Y-36.8614
G01 X19.3081 Y-36.8575
G01 X19.3988 Y-36.8348
G01 X19.4131 Y-36.8316
G01 X19.4277 Y-36.8290
G01 X19.5201 Y-36.8153
G01 X19.5347 Y-36.8135
G01 X19.5494 Y-36.8124
G01 X19.6428 Y-36.8079
G01 X19.6575 Y-36.8075
G01 X19.7599 Y-36.8076
G01 X19.8606 Y-36.8124
G01 X19.8826 Y-36.8143
G01 X19.9823 Y-36.8290
G01 X19.9969 Y-36.8316
G01 X20.0112 Y-36.8348
G01 X20.1019 Y-36.8575
G01 X20.1231 Y-36.8637
G01 X20.2181 Y-36.8975
G01 X20.2318 Y-36.9028
G01 X20.2453 Y-36.9088
G01 X20.3298 Y-36.9488
G01 X20.3429 Y-36.9554
G01 X20.3557 Y-36.9627
G01 X20.4359 Y-37.0107
G01 X20.4484 Y-37.0186
G01 X20.4604 Y-37.0271
G01 X20.5355 Y-37.0827
G01 X20.5471 Y-37.0918
G01 X20.5564 Y-37.0998
G01 X20.5533 Y-37.0820
G01 X20.5516 Y-37.0672
G01 X20.5504 Y-37.0449
G01 X20.5505 Y-37.0300
G01 X20.5514 Y-37.0152
G01 X20.5540 Y-36.9930
G01 X20.5583 Y-36.9710
G01 X20.5621 Y-36.9566
G01 X20.5691 Y-36.9354
G01 X20.5938 Y-36.8688
G01 X20.5993 Y-36.8550
G01 X20.6055 Y-36.8415
G01 X20.6161 Y-36.8218
G01 X20.6281 Y-36.8029
G01 X20.6414 Y-36.7850
G01 X20.6521 Y-36.7725
G01 X18.7509 Y-36.7725
G01 X18.7620 Y-36.7870
G01 X18.7703 Y-36.7990
G01 X18.7779 Y-36.8115
G01 X18.7881 Y-36.8308
G01 X18.8238 Y-36.9088
G01 X18.8318 Y-36.9296
G01 X18.8382 Y-36.9510
G01 X18.8416 Y-36.9655
G01 X18.8453 Y-36.9876
G01 X18.8474 Y-37.0098
G01 X18.8479 Y-37.0247
G01 X18.8476 Y-37.0396
G01 X18.8458 Y-37.0619
G01 X18.8384 Y-37.1135
G00 Z2.0000
G00 X20.3094 Y-39.1808
G01 F60.00
G01 Z-0.0500
G01 F100.00
G01 X20.2453 Y-39.2112
G01 X20.2318 Y-39.2172
G01 X20.2181 Y-39.2225
G01 X20.1301 Y-39.2539
G01 X20.1161 Y-39.2586
G01 X20.1019 Y-39.2625
G01 X20.0112 Y-39.2852
G01 X19.9969 Y-39.2884
G01 X19.9823 Y-39.2910
G01 X19.8899 Y-39.3047
G01 X19.8679 Y-39.3071
G01 X19.7599 Y-39.3124
G01 X19.6575 Y-39.3125
G01 X19.6428 Y-39.3121
G01 X19.5494 Y-39.3076
G01 X19.5347 Y-39.3065
G01 X19.5201 Y-39.3047
G01 X19.4277 Y-39.2910
G01 X19.4131 Y-39.2884
G01 X19.3988 Y-39.2852
G01 X19.3081 Y-39.2625
G01 X19.2939 Y-39.2586
G01 X19.2799 Y-39.2539
G01 X19.1919 Y-39.2225
G01 X19.1782 Y-39.2172
G01 X19.1647 Y-39.2112
G01 X19.0948 Y-39.1781
G01 X19.1011 Y-39.1918
G01 X19.1067 Y-39.2056
G01 X19.1137 Y-39.2268
G01 X19.1175 Y-39.2413
G01 X19.1205 Y-39.2558
G01 X19.1229 Y-39.2706
G01 X19.1250 Y-39.2928
G01 X19.1255 Y-39.3077
G01 X19.1253 Y-39.3226
G01 X19.1243 Y-39.3375
G01 X19.1144 Y-39.4228
G01 X19.1120 Y-39.4375
G01 X19.1088 Y-39.4520
G01 X19.1049 Y-39.4664
G01 X19.1008 Y-39.4790
G01 X19.1647 Y-39.4488
G01 X19.1782 Y-39.4428
G01 X19.1919 Y-39.4375
G01 X19.2799 Y-39.4061
G01 X19.2939 Y-39.4014
G01 X19.3081 Y-39.3975
G01 X19.3988 Y-39.3748
G01 X19.4131 Y-39.3716
G01 X19.4277 Y-39.3690
G01 X19.5201 Y-39.3553
G01 X19.5421 Y-39.3529
G01 X19.6501 Y-39.3476
G01 X19.7525 Y-39.3475
G01 X19.7672 Y-39.3479
G01 X19.8606 Y-39.3524
G01 X19.8753 Y-39.3535
G01 X19.8899 Y-39.3553
G01 X19.9823 Y-39.3690
G01 X19.9969 Y-39.3716
G01 X20.0112 Y-39.3748
G01 X20.1019 Y-39.3975
G01 X20.1161 Y-39.4014
G01 X20.1301 Y-39.4061
G01 X20.2181 Y-39.4375
G01 X20.2318 Y-39.4428
G01 X20.2453 Y-39.4488
G01 X20.3148 Y-39.4817
G01 X20.3060 Y-39.4619
G01 X20.3008 Y-39.4480
G01 X20.2963 Y-39.4338
G01 X20.2925 Y-39.4193
G01 X20.2895 Y-39.4048
G01 X20.2871 Y-39.3901
G01 X20.2855 Y-39.3752
G01 X20.2845 Y-39.3529
G01 X20.2847 Y-39.3380
G01 X20.2857 Y-39.3232
G01 X20.2956 Y-39.2378
G01 X20.2980 Y-39.2231
G01 X20.3012 Y-39.2086
G01 X20.3051 Y-39.1942
G01 X20.3094 Y-39.1808
G00 Z2.0000
G00 X18.3749 Y-40.9790
G01 F60.00
G01 Z-0.0500
G01 F100.00
G01 X18.4352 Y-41.1494
G01 X18.5413 Y-41.3416
G01 X18.6774 Y-41.5139
G01 X18.8399 Y-41.6618
G01 X19.0242 Y-41.7810
G01 X19.2256 Y-41.8686
G01 X19.3260 Y-41.8938
G01 X19.3260 Y-41.6246
G01 X19.2452 Y-41.5955
G01 X19.1551 Y-41.5530
G01 X19.1442 Y-41.5472
G01 X19.0641 Y-41.4992
G01 X19.0539 Y-41.4924
G01 X18.9739 Y-41.4329
G01 X18.8978 Y-41.3641
G01 X18.8914 Y-41.3575
G01 X18.8246 Y-41.2836
G01 X18.7651 Y-41.2036
G01 X18.7599 Y-41.1961
G01 X18.7103 Y-41.1133
G01 X18.7058 Y-41.1052
G01 X18.6632 Y-41.0152
G01 X18.6598 Y-41.0066
G01 X18.6499 Y-40.9790
G01 X18.3749 Y-40.9790
G00 Z2.0000
G00 X20.0840 Y-41.8941
G01 F60.00
G01 Z-0.0500
G01 F100.00
G01 X20.2153 Y-41.8576
G01 X20.4144 Y-41.7652
G01 X20.5958 Y-41.6415
G01 X20.7546 Y-41.4897
G01 X20.8865 Y-41.3141
G01 X20.9879 Y-41.1193
G01 X21.0337 Y-40.9790
G01 X20.7601 Y-40.9790
G01 X20.7502 Y-41.0066
G01 X20.7468 Y-41.0152
G01 X20.7042 Y-41.1052
G01 X20.6997 Y-41.1133
G01 X20.6501 Y-41.1961
G01 X20.6449 Y-41.2036
G01 X20.5854 Y-41.2836
G01 X20.5186 Y-41.3575
G01 X20.5122 Y-41.3641
G01 X20.4361 Y-41.4329
G01 X20.3561 Y-41.4924
G01 X20.3459 Y-41.4992
G01 X20.2658 Y-41.5472
G01 X20.2549 Y-41.5530
G01 X20.1648 Y-41.5955
G01 X20.0840 Y-41.6246
G01 X20.0840 Y-41.8941
G00 Z2.0000
G00 X18.8905 Y-50.3239
G01 F60.00
G01 Z-0.0500
G01 F100.00
G01 X18.8905 Y-50.5994
G01 X18.9711 Y-50.6377
G01 X19.0532 Y-50.6869
G01 X19.1300 Y-50.7439
G01 X19.2009 Y-50.8082
G01 X19.2652 Y-50.8791
G01 X19.3222 Y-50.9559
G01 X19.3714 Y-51.0380
G01 X19.4097 Y-51.1186
G01 X19.6851 Y-51.1186
G01 X19.6618 Y-51.0421
G01 X19.5720 Y-50.8604
G01 X19.4537 Y-50.6957
G01 X19.3101 Y-50.5526
G01 X19.1450 Y-50.4349
G01 X18.9629 Y-50.3457
G01 X18.8905 Y-50.3239
G00 Z2.0000
G00 X17.3345 Y-51.1186
G01 F60.00
G01 Z-0.0500
G01 F100.00
G01 X17.6133 Y-51.1186
G01 X17.6516 Y-51.0380
G01 X17.7008 Y-50.9559
G01 X17.7578 Y-50.8791
G01 X17.8221 Y-50.8082
G01 X17.8930 Y-50.7439
G01 X17.9698 Y-50.6869
G01 X18.0519 Y-50.6377
G01 X18.1325 Y-50.5994
G01 X18.1325 Y-50.3224
G01 X17.9769 Y-50.3818
G01 X17.8019 Y-50.4841
G01 X17.6458 Y-50.6137
G01 X17.5131 Y-50.7669
G01 X17.4072 Y-50.9398
G01 X17.3345 Y-51.1186
G00 Z2.0000
G00 X17.7726 Y-52.8876
G01 F60.00
G01 Z-0.0500
G01 F100.00
G01 X19.2497 Y-52.8876
G01 X19.2349 Y-52.8709
G01 X19.1897 Y-52.8162
G01 X19.1805 Y-52.8045
G01 X19.1719 Y-52.7923
G01 X19.1602 Y-52.7733
G01 X19.1499 Y-52.7534
G01 X19.1411 Y-52.7329
G01 X19.1339 Y-52.7117
G01 X19.1282 Y-52.6901
G01 X19.1242 Y-52.6681
G01 X19.1148 Y-52.5903
G01 X19.1130 Y-52.5680
G01 X19.1127 Y-52.5531
G01 X19.1132 Y-52.5382
G01 X19.1153 Y-52.5159
G01 X19.1190 Y-52.4939
G01 X19.1224 Y-52.4794
G01 X19.1252 Y-52.4693
G01 X19.0664 Y-52.5046
G01 X19.0536 Y-52.5118
G01 X19.0404 Y-52.5184
G01 X18.9650 Y-52.5541
G01 X18.9516 Y-52.5601
G01 X18.9378 Y-52.5654
G01 X18.8593 Y-52.5935
G01 X18.8453 Y-52.5981
G01 X18.8311 Y-52.6020
G01 X18.7502 Y-52.6223
G01 X18.7358 Y-52.6255
G01 X18.7213 Y-52.6280
G01 X18.6388 Y-52.6403
G01 X18.6242 Y-52.6421
G01 X18.6095 Y-52.6432
G01 X18.5262 Y-52.6473
G01 X18.5115 Y-52.6476
G01 X18.4968 Y-52.6473
G01 X18.4135 Y-52.6432
G01 X18.3988 Y-52.6421
G01 X18.3842 Y-52.6403
G01 X18.3017 Y-52.6280
G01 X18.2871 Y-52.6255
G01 X18.2728 Y-52.6223
G01 X18.1919 Y-52.6020
G01 X18.1777 Y-52.5981
G01 X18.1637 Y-52.5935
G01 X18.0851 Y-52.5654
G01 X18.0714 Y-52.5601
G01 X18.0579 Y-52.5541
G01 X17.9825 Y-52.5184
G01 X17.9694 Y-52.5118
G01 X17.9566 Y-52.5046
G01 X17.8957 Y-52.4681
G01 X17.9070 Y-52.5194
G01 X17.9098 Y-52.5341
G01 X17.9127 Y-52.5562
G01 X17.9137 Y-52.5711
G01 X17.9138 Y-52.5934
G01 X17.9122 Y-52.6157
G01 X17.9102 Y-52.6305
G01 X17.9076 Y-52.6451
G01 X17.9022 Y-52.6668
G01 X17.8952 Y-52.6881
G01 X17.8678 Y-52.7616
G01 X17.8587 Y-52.7820
G01 X17.8482 Y-52.8017
G01 X17.8403 Y-52.8144
G01 X17.8319 Y-52.8266
G01 X17.8228 Y-52.8385
G01 X17.8132 Y-52.8498
G01 X17.8030 Y-52.8607
G01 X17.7923 Y-52.8711
G01 X17.7811 Y-52.8809
G01 X17.7726 Y-52.8876
G00 Z2.0000
G00 X17.6615 Y-53.0626
G01 F60.00
G01 Z-0.0500
G01 F100.00
G01 X17.6492 Y-53.0632
G01 X17.6401 Y-53.0645
G01 X17.6282 Y-53.0671
G01 X17.6165 Y-53.0710
G01 X17.6053 Y-53.0760
G01 X17.5946 Y-53.0820
G01 X17.5846 Y-53.0891
G01 X17.5753 Y-53.0971
G01 X17.5668 Y-53.1060
G01 X17.5611 Y-53.1132
G01 X17.5543 Y-53.1234
G01 X17.5485 Y-53.1342
G01 X17.5438 Y-53.1455
G01 X17.5402 Y-53.1572
G01 X17.5378 Y-53.1693
G01 X17.5366 Y-53.1815
G01 X17.5365 Y-54.8907
G01 X17.5371 Y-54.8999
G01 X17.5383 Y-54.9090
G01 X17.5410 Y-54.9210
G01 X17.5438 Y-54.9297
G01 X17.5485 Y-54.9411
G01 X17.5527 Y-54.9492
G01 X17.5576 Y-54.9571
G01 X17.5649 Y-54.9669
G01 X17.5731 Y-54.9760
G01 X17.5846 Y-54.9862
G01 X17.5946 Y-54.9932
G01 X17.6053 Y-54.9993
G01 X17.6194 Y-55.0053
G01 X17.6311 Y-55.0089
G01 X17.6432 Y-55.0113
G01 X17.6554 Y-55.0125
G01 X18.5002 Y-55.0126
G01 X22.0720 Y-58.5844
G01 X22.1066 Y-58.6156
G01 X22.1414 Y-58.6416
G01 X22.1516 Y-58.6484
G01 X22.1837 Y-58.6677
G01 X22.1945 Y-58.6735
G01 X22.2340 Y-58.6919
G01 X22.2807 Y-58.7087
G01 X22.3289 Y-58.7207
G01 X22.3720 Y-58.7273
G01 X22.3842 Y-58.7285
G01 X22.4277 Y-58.7305
G01 X44.0681 Y-58.7304
G01 X44.1146 Y-58.7280
G01 X44.1577 Y-58.7218
G01 X44.1698 Y-58.7194
G01 X44.2120 Y-58.7087
G01 X44.2587 Y-58.6919
G01 X44.2982 Y-58.6735
G01 X44.3090 Y-58.6677
G01 X44.3411 Y-58.6484
G01 X44.3488 Y-58.6434
G01 X44.3861 Y-58.6156
G01 X44.4208 Y-58.5844
G01 X44.7840 Y-58.2212
G01 X49.3942 Y-58.2212
G01 X49.4363 Y-58.2777
G01 X49.4948 Y-58.3422
G01 X49.5593 Y-58.4007
G01 X49.6242 Y-58.4490
G01 X49.6344 Y-58.4558
G01 X49.7039 Y-58.4973
G01 X49.7770 Y-58.5320
G01 X49.7883 Y-58.5367
G01 X49.8587 Y-58.5619
G01 X49.8704 Y-58.5654
G01 X49.9490 Y-58.5850
G01 X50.0290 Y-58.5970
G01 X50.0412 Y-58.5982
G01 X50.1189 Y-58.6020
G01 X50.9011 Y-58.6020
G01 X50.9849 Y-58.5977
G01 X51.0710 Y-58.5850
G01 X51.1555 Y-58.5638
G01 X51.2317 Y-58.5367
G01 X51.2430 Y-58.5320
G01 X51.3161 Y-58.4973
G01 X51.3856 Y-58.4558
G01 X51.3958 Y-58.4490
G01 X51.4559 Y-58.4044
G01 X51.4654 Y-58.3967
G01 X51.5252 Y-58.3422
G01 X51.5837 Y-58.2777
G01 X51.6355 Y-58.2078
G01 X51.6803 Y-58.1331
G01 X51.7175 Y-58.0544
G01 X51.7468 Y-57.9725
G01 X51.7680 Y-57.8880
G01 X51.7800 Y-57.8080
G01 X51.7812 Y-57.7958
G01 X51.7850 Y-57.7150
G01 X51.7807 Y-57.6281
G01 X51.7680 Y-57.5420
G01 X51.7468 Y-57.4575
G01 X51.7175 Y-57.3756
G01 X51.6803 Y-57.2969
G01 X51.6355 Y-57.2222
G01 X51.5874 Y-57.1571
G01 X51.5797 Y-57.1476
G01 X51.5252 Y-57.0878
G01 X51.4654 Y-57.0333
G01 X51.4559 Y-57.0256
G01 X51.3958 Y-56.9810
G01 X51.3856 Y-56.9742
G01 X51.3161 Y-56.9327
G01 X51.2430 Y-56.8980
G01 X51.2317 Y-56.8933
G01 X51.1555 Y-56.8662
G01 X51.0710 Y-56.8450
G01 X50.9849 Y-56.8323
G01 X50.8980 Y-56.8280
G01 X50.1189 Y-56.8280
G01 X50.0412 Y-56.8318
G01 X50.0290 Y-56.8330
G01 X49.9490 Y-56.8450
G01 X49.8704 Y-56.8646
G01 X49.8587 Y-56.8681
G01 X49.7883 Y-56.8933
G01 X49.7770 Y-56.8980
G01 X49.7039 Y-56.9327
G01 X49.6344 Y-56.9742
G01 X49.6242 Y-56.9810
G01 X49.5593 Y-57.0293
G01 X49.4948 Y-57.0878
G01 X49.4363 Y-57.1523
G01 X49.3942 Y-57.2088
G01 X44.5743 Y-57.2088
G01 X44.5308 Y-57.2108
G01 X44.5216 Y-57.2116
G01 X44.4756 Y-57.2185
G01 X44.4333 Y-57.2290
G01 X44.4215 Y-57.2325
G01 X44.3806 Y-57.2473
G01 X44.3412 Y-57.2658
G01 X44.3304 Y-57.2716
G01 X44.2931 Y-57.2941
G01 X44.2580 Y-57.3199
G01 X44.2485 Y-57.3277
G01 X44.2164 Y-57.3571
G01 X43.8554 Y-57.7181
G01 X22.6374 Y-57.7181
G01 X19.4865 Y-54.5672
G01 X19.4865 Y-53.1845
G01 X19.4856 Y-53.1723
G01 X19.4835 Y-53.1602
G01 X19.4802 Y-53.1484
G01 X19.4758 Y-53.1370
G01 X19.4703 Y-53.1260
G01 X19.4637 Y-53.1156
G01 X19.4561 Y-53.1060
G01 X19.4477 Y-53.0971
G01 X19.4408 Y-53.0910
G01 X19.4309 Y-53.0837
G01 X19.4204 Y-53.0774
G01 X19.4093 Y-53.0721
G01 X19.3978 Y-53.0680
G01 X19.3889 Y-53.0657
G01 X19.3768 Y-53.0636
G01 X19.3646 Y-53.0627
G01 X17.6615 Y-53.0626
G00 Z2.0000
G00 X12.9272 Y-52.6188
G01 F60.00
G01 Z-0.0500
G01 F100.00
G01 X12.9988 Y-52.6188
G01 X12.9988 Y-52.5414
G01 X12.9544 Y-52.5925
G01 X12.9387 Y-52.6085
G01 X12.9272 Y-52.6188
G00 Z2.0000
G00 X12.9214 Y-53.9812
G01 F60.00
G01 Z-0.0500
G01 F100.00
G01 X12.9725 Y-54.0256
G01 X12.9885 Y-54.0413
G01 X12.9988 Y-54.0528
G01 X12.9988 Y-53.9812
G01 X12.9214 Y-53.9812
G00 Z2.0000
G00 X11.6410 Y-54.5521
G01 F60.00
G01 Z-0.0500
G01 F100.00
G01 X11.6388 Y-54.5674
G01 X11.6384 Y-54.5829
G01 X11.6400 Y-54.5984
G01 X11.6434 Y-54.6135
G01 X11.6464 Y-54.6223
G01 X11.6738 Y-54.6943
G01 X11.6807 Y-54.7079
G01 X11.6856 Y-54.7155
G01 X11.6910 Y-54.7229
G01 X11.6991 Y-54.7319
G01 X11.7286 Y-54.7607
G01 X11.7406 Y-54.7710
G01 X11.9139 Y-54.8946
G01 X12.0576 Y-55.0378
G01 X12.1759 Y-55.2025
G01 X12.2658 Y-55.3844
G01 X12.3248 Y-55.5784
G01 X12.3517 Y-55.7831
G01 X12.3530 Y-55.8364
G01 X12.3502 Y-55.8718
G01 X12.3500 Y-55.8807
G01 X12.3507 Y-55.8926
G01 X12.3525 Y-55.9043
G01 X12.3675 Y-55.9768
G01 X12.3708 Y-55.9884
G01 X12.3740 Y-55.9968
G01 X12.3792 Y-56.0077
G01 X12.3854 Y-56.0180
G01 X12.4110 Y-56.0529
G01 X12.4188 Y-56.0624
G01 X17.3928 Y-61.0364
G01 X17.4019 Y-61.0440
G01 X17.4143 Y-61.0521
G01 X17.4792 Y-61.0876
G01 X17.4931 Y-61.0941
G01 X17.5077 Y-61.0989
G01 X17.5197 Y-61.1014
G01 X17.5526 Y-61.1051
G01 X17.5659 Y-61.1058
G01 X18.5346 Y-61.1057
G01 X18.5465 Y-61.1045
G01 X18.5610 Y-61.1015
G01 X18.6320 Y-61.0807
G01 X18.6437 Y-61.0766
G01 X18.6577 Y-61.0699
G01 X18.6682 Y-61.0634
G01 X18.6781 Y-61.0558
G01 X18.6892 Y-61.0450
G01 X18.7417 Y-60.9842
G01 X18.7505 Y-60.9714
G01 X18.7576 Y-60.9577
G01 X18.7630 Y-60.9431
G01 X18.7665 Y-60.9280
G01 X18.7771 Y-60.8547
G01 X18.7783 Y-60.8423
G01 X18.7780 Y-60.8268
G01 X18.7764 Y-60.8145
G01 X18.7735 Y-60.8024
G01 X18.7683 Y-60.7878
G01 X18.7376 Y-60.7204
G01 X18.7334 Y-60.7121
G01 X18.7287 Y-60.7041
G01 X18.7233 Y-60.6966
G01 X18.7175 Y-60.6894
G01 X18.7092 Y-60.6805
G01 X13.1959 Y-55.1671
G01 X13.1887 Y-55.1604
G01 X13.1737 Y-55.1476
G01 X13.1656 Y-55.1413
G01 X13.1296 Y-55.1013
G01 X13.1111 Y-55.0823
G01 X13.0941 Y-55.0618
G01 X13.0581 Y-55.0218
G01 X13.0526 Y-55.0132
G01 X13.0396 Y-54.9942
G01 X13.0353 Y-54.9887
G01 X13.0094 Y-54.9379
G01 X12.9777 Y-54.8827
G01 X12.9742 Y-54.8730
G01 X12.9654 Y-54.8518
G01 X12.9623 Y-54.8455
G01 X12.9457 Y-54.7841
G01 X12.9281 Y-54.7298
G01 X12.9272 Y-54.7229
G01 X12.9230 Y-54.7003
G01 X12.9208 Y-54.6903
G01 X12.9179 Y-54.6366
G01 X12.9155 Y-54.6101
G01 X12.9152 Y-54.5835
G01 X12.9123 Y-54.5298
G01 X12.9136 Y-54.5196
G01 X12.9151 Y-54.4999
G01 X12.9155 Y-54.4901
G01 X12.9155 Y-54.3155
G01 X12.9146 Y-54.3007
G01 X12.9126 Y-54.2889
G01 X12.9104 Y-54.2803
G01 X12.8904 Y-54.2122
G01 X12.8864 Y-54.2004
G01 X12.8796 Y-54.1865
G01 X12.8731 Y-54.1759
G01 X12.8655 Y-54.1661
G01 X12.8547 Y-54.1550
G01 X12.7963 Y-54.1044
G01 X12.7863 Y-54.0970
G01 X12.7728 Y-54.0891
G01 X12.7584 Y-54.0830
G01 X12.7465 Y-54.0794
G01 X12.6911 Y-54.0674
G01 X12.6764 Y-54.0651
G01 X12.6645 Y-54.0645
G01 X12.1922 Y-54.0646
G01 X12.1774 Y-54.0662
G01 X12.1658 Y-54.0688
G01 X12.0919 Y-54.0905
G01 X12.0804 Y-54.0948
G01 X12.0694 Y-54.1002
G01 X12.0590 Y-54.1066
G01 X12.0517 Y-54.1121
G01 X12.0242 Y-54.1352
G01 X12.0170 Y-54.1419
G01 X11.9591 Y-54.2052
G01 X11.8000 Y-54.3309
G01 X11.7651 Y-54.3502
G01 X11.7575 Y-54.3550
G01 X11.7503 Y-54.3603
G01 X11.7393 Y-54.3702
G01 X11.6893 Y-54.4207
G01 X11.6791 Y-54.4323
G01 X11.6720 Y-54.4425
G01 X11.6660 Y-54.4534
G01 X11.6610 Y-54.4648
G01 X11.6565 Y-54.4796
G01 X11.6410 Y-54.5521
G00 Z2.0000
G00 X10.7186 Y-54.3785
G01 F60.00
G01 Z-0.0500
G01 F100.00
G01 X10.7489 Y-54.4531
G01 X10.7538 Y-54.4671
G01 X10.7580 Y-54.4814
G01 X10.7615 Y-54.4959
G01 X10.7654 Y-54.5179
G01 X10.7671 Y-54.5327
G01 X10.7682 Y-54.5550
G01 X10.7677 Y-54.5774
G01 X10.7655 Y-54.5996
G01 X10.7631 Y-54.6143
G01 X10.7486 Y-54.6914
G01 X10.7431 Y-54.7131
G01 X10.7386 Y-54.7273
G01 X10.7333 Y-54.7412
G01 X10.7254 Y-54.7591
G01 X10.7672 Y-54.7441
G01 X10.7882 Y-54.7375
G01 X10.8763 Y-54.7153
G01 X10.8979 Y-54.7107
G01 X10.9877 Y-54.6973
G01 X11.0023 Y-54.6955
G01 X11.0170 Y-54.6945
G01 X11.1003 Y-54.6904
G01 X11.1150 Y-54.6900
G01 X11.1297 Y-54.6904
G01 X11.2130 Y-54.6945
G01 X11.2277 Y-54.6955
G01 X11.2423 Y-54.6973
G01 X11.3321 Y-54.7107
G01 X11.3537 Y-54.7153
G01 X11.4418 Y-54.7375
G01 X11.4628 Y-54.7441
G01 X11.5124 Y-54.7619
G01 X11.4827 Y-54.6842
G01 X11.4778 Y-54.6701
G01 X11.4736 Y-54.6559
G01 X11.4701 Y-54.6414
G01 X11.4662 Y-54.6194
G01 X11.4639 Y-54.5971
G01 X11.4633 Y-54.5823
G01 X11.4635 Y-54.5674
G01 X11.4644 Y-54.5525
G01 X11.4671 Y-54.5303
G01 X11.4699 Y-54.5157
G01 X11.4846 Y-54.4462
G01 X11.4881 Y-54.4317
G01 X11.4946 Y-54.4104
G01 X11.4999 Y-54.3964
G01 X11.5071 Y-54.3800
G01 X11.4628 Y-54.3959
G01 X11.4418 Y-54.4025
G01 X11.3537 Y-54.4247
G01 X11.3321 Y-54.4293
G01 X11.2423 Y-54.4427
G01 X11.2277 Y-54.4445
G01 X11.2130 Y-54.4455
G01 X11.1297 Y-54.4496
G01 X11.1150 Y-54.4500
G01 X11.1003 Y-54.4496
G01 X11.0170 Y-54.4455
G01 X11.0023 Y-54.4445
G01 X10.9877 Y-54.4427
G01 X10.8979 Y-54.4293
G01 X10.8763 Y-54.4247
G01 X10.7882 Y-54.4025
G01 X10.7672 Y-54.3959
G01 X10.7186 Y-54.3785
G00 Z2.0000
G00 X10.1454 Y-55.7383
G01 F60.00
G01 Z-0.0500
G01 F100.00
G01 X10.1442 Y-55.7506
G01 X10.1400 Y-55.8400
G01 X10.1447 Y-55.9356
G01 X10.1587 Y-56.0302
G01 X10.1803 Y-56.1171
G01 X10.1839 Y-56.1289
G01 X10.2120 Y-56.2074
G01 X10.2167 Y-56.2187
G01 X10.2551 Y-56.2996
G01 X10.3010 Y-56.3765
G01 X10.3078 Y-56.3867
G01 X10.3613 Y-56.4585
G01 X10.4213 Y-56.5250
G01 X10.4278 Y-56.5316
G01 X10.4918 Y-56.5897
G01 X10.5013 Y-56.5975
G01 X10.5733 Y-56.6507
G01 X10.6500 Y-56.6968
G01 X10.6609 Y-56.7026
G01 X10.7419 Y-56.7408
G01 X10.8261 Y-56.7711
G01 X10.8349 Y-56.7739
G01 X10.9248 Y-56.7963
G01 X11.0133 Y-56.8096
G01 X11.0256 Y-56.8108
G01 X11.1119 Y-56.8150
G01 X11.1211 Y-56.8148
G01 X11.2044 Y-56.8108
G01 X11.2136 Y-56.8100
G01 X11.3022 Y-56.7968
G01 X11.3112 Y-56.7949
G01 X11.3455 Y-56.7863
G01 X16.7896 Y-62.2304
G01 X16.8242 Y-62.2616
G01 X16.8591 Y-62.2876
G01 X16.8693 Y-62.2945
G01 X16.9013 Y-62.3137
G01 X16.9122 Y-62.3195
G01 X16.9516 Y-62.3380
G01 X16.9984 Y-62.3547
G01 X17.0465 Y-62.3668
G01 X17.0896 Y-62.3733
G01 X17.1018 Y-62.3745
G01 X17.1453 Y-62.3765
G01 X28.5472 Y-62.3765
G01 X28.5601 Y-62.3778
G01 X28.6036 Y-62.3798
G01 X54.6364 Y-62.3798
G01 X54.6860 Y-62.3773
G01 X54.7291 Y-62.3711
G01 X54.7411 Y-62.3687
G01 X54.7774 Y-62.3596
G01 X54.7892 Y-62.3561
G01 X54.8301 Y-62.3413
G01 X54.8695 Y-62.3228
G01 X54.8804 Y-62.3170
G01 X54.9124 Y-62.2978
G01 X54.9226 Y-62.2909
G01 X54.9575 Y-62.2649
G01 X54.9921 Y-62.2337
G01 X57.2201 Y-60.0057
G01 X57.2513 Y-59.9711
G01 X57.2773 Y-59.9362
G01 X57.2842 Y-59.9260
G01 X57.3034 Y-59.8940
G01 X57.3092 Y-59.8831
G01 X57.3277 Y-59.8437
G01 X57.3444 Y-59.7969
G01 X57.3565 Y-59.7488
G01 X57.3634 Y-59.7027
G01 X57.3642 Y-59.6935
G01 X57.3662 Y-59.6500
G01 X57.3662 Y-39.5397
G01 X61.5447 Y-35.3612
G01 X67.1742 Y-35.3612
G01 X67.2163 Y-35.4177
G01 X67.2748 Y-35.4822
G01 X67.3393 Y-35.5407
G01 X67.4092 Y-35.5925
G01 X67.4839 Y-35.6373
G01 X67.5626 Y-35.6745
G01 X67.6445 Y-35.7038
G01 X67.7260 Y-35.7243
G01 X67.7350 Y-35.7260
G01 X67.8151 Y-35.7377
G01 X67.8989 Y-35.7420
G01 X68.6780 Y-35.7420
G01 X68.7649 Y-35.7377
G01 X68.8510 Y-35.7250
G01 X68.9296 Y-35.7054
G01 X68.9413 Y-35.7019
G01 X69.0117 Y-35.6767
G01 X69.0230 Y-35.6720
G01 X69.0961 Y-35.6373
G01 X69.1656 Y-35.5958
G01 X69.1758 Y-35.5890
G01 X69.2407 Y-35.5407
G01 X69.3052 Y-35.4822
G01 X69.3637 Y-35.4177
G01 X69.4155 Y-35.3478
G01 X69.4603 Y-35.2731
G01 X69.4950 Y-35.2000
G01 X69.4997 Y-35.1887
G01 X69.5249 Y-35.1183
G01 X69.5284 Y-35.1066
G01 X69.5480 Y-35.0280
G01 X69.5600 Y-34.9480
G01 X69.5612 Y-34.9358
G01 X69.5650 Y-34.8550
G01 X69.5607 Y-34.7681
G01 X69.5480 Y-34.6820
G01 X69.5284 Y-34.6034
G01 X69.5249 Y-34.5917
G01 X69.4975 Y-34.5156
G01 X69.4630 Y-34.4424
G01 X69.4572 Y-34.4315
G01 X69.4188 Y-34.3674
G01 X69.4120 Y-34.3572
G01 X69.3637 Y-34.2923
G01 X69.3052 Y-34.2278
G01 X69.2407 Y-34.1693
G01 X69.1758 Y-34.1210
G01 X69.1656 Y-34.1142
G01 X69.1015 Y-34.0758
G01 X69.0906 Y-34.0700
G01 X69.0174 Y-34.0355
G01 X68.9355 Y-34.0062
G01 X68.8570 Y-33.9864
G01 X68.8450 Y-33.9840
G01 X68.7649 Y-33.9723
G01 X68.6811 Y-33.9680
G01 X67.8989 Y-33.9680
G01 X67.8212 Y-33.9718
G01 X67.8090 Y-33.9730
G01 X67.7290 Y-33.9850
G01 X67.6504 Y-34.0046
G01 X67.6387 Y-34.0081
G01 X67.5683 Y-34.0333
G01 X67.5570 Y-34.0380
G01 X67.4839 Y-34.0727
G01 X67.4144 Y-34.1142
G01 X67.4042 Y-34.1210
G01 X67.3393 Y-34.1693
G01 X67.2748 Y-34.2278
G01 X67.2163 Y-34.2923
G01 X67.1742 Y-34.3488
G01 X61.3350 Y-34.3488
G01 X61.2854 Y-34.3512
G01 X61.2423 Y-34.3575
G01 X61.2303 Y-34.3599
G01 X61.1940 Y-34.3690
G01 X61.1851 Y-34.3715
G01 X61.1470 Y-34.3851
G01 X61.1357 Y-34.3898
G01 X61.0964 Y-34.4086
G01 X61.0590 Y-34.4308
G01 X61.0488 Y-34.4377
G01 X61.0139 Y-34.4637
G01 X60.9771 Y-34.4971
G01 X56.5021 Y-38.9721
G01 X56.4727 Y-39.0042
G01 X56.4649 Y-39.0137
G01 X56.4391 Y-39.0488
G01 X56.4151 Y-39.0887
G01 X56.4108 Y-39.0969
G01 X56.3923 Y-39.1363
G01 X56.3775 Y-39.1772
G01 X56.3740 Y-39.1890
G01 X56.3635 Y-39.2312
G01 X56.3570 Y-39.2743
G01 X56.3558 Y-39.2865
G01 X56.3538 Y-39.3300
G01 X56.3538 Y-59.4403
G01 X54.4267 Y-61.3674
G01 X28.6567 Y-61.3674
G01 X28.6438 Y-61.3661
G01 X28.6003 Y-61.3641
G01 X17.3550 Y-61.3641
G01 X12.0613 Y-56.0705
G01 X12.0699 Y-56.0362
G01 X12.0718 Y-56.0272
G01 X12.0850 Y-55.9386
G01 X12.0858 Y-55.9294
G01 X12.0898 Y-55.8461
G01 X12.0900 Y-55.8369
G01 X12.0853 Y-55.7444
G01 X12.0723 Y-55.6558
G01 X12.0699 Y-55.6438
G01 X12.0497 Y-55.5629
G01 X12.0471 Y-55.5540
G01 X12.0158 Y-55.4669
G01 X11.9776 Y-55.3859
G01 X11.9718 Y-55.3750
G01 X11.9257 Y-55.2983
G01 X11.8687 Y-55.2215
